data/tests/eco-off.ccss
CCSS   
DISPLAY	"Sample Data"
ORIGINATOR	"cd-refresh"
CREATED	"Sun Nov 16 19:28:04 2014"
DESCRIPTOR	"Colorimeter Calibration Spectral Set"
SPECTRAL_START_NM	0.0
SPECTRAL_END_NM	1.988
SPECTRAL_BANDS	1365
NUMBER_OF_FIELDS	1366
NUMBER_OF_SETS	3
BEGIN_DATA_FORMAT
 SAMPLE_ID	SPEC_1	SPEC_2	SPEC_4	SPEC_5	SPEC_7	SPEC_8	SPEC_10	SPEC_11	SPEC_13	SPEC_14	SPEC_16	SPEC_17	SPEC_18	SPEC_20	SPEC_21	SPEC_23	SPEC_24	SPEC_26	SPEC_27	SPEC_29	SPEC_30	SPEC_32	SPEC_33	SPEC_35	SPEC_36	SPEC_37	SPEC_39	SPEC_40	SPEC_42	SPEC_43	SPEC_45	SPEC_46	SPEC_48	SPEC_49	SPEC_51	SPEC_52	SPEC_53	SPEC_55	SPEC_56	SPEC_58	SPEC_59	SPEC_61	SPEC_62	SPEC_64	SPEC_65	SPEC_67	SPEC_68	SPEC_69	SPEC_71	SPEC_72	SPEC_74	SPEC_75	SPEC_77	SPEC_78	SPEC_80	SPEC_81	SPEC_83	SPEC_84	SPEC_86	SPEC_87	SPEC_88	SPEC_90	SPEC_91	SPEC_93	SPEC_94	SPEC_96	SPEC_97	SPEC_99	SPEC_100	SPEC_102	SPEC_103	SPEC_104	SPEC_106	SPEC_107	SPEC_109	SPEC_110	SPEC_112	SPEC_113	SPEC_115	SPEC_116	SPEC_118	SPEC_119	SPEC_121	SPEC_122	SPEC_123	SPEC_125	SPEC_126	SPEC_128	SPEC_129	SPEC_131	SPEC_132	SPEC_134	SPEC_135	SPEC_137	SPEC_138	SPEC_139	SPEC_141	SPEC_142	SPEC_144	SPEC_145	SPEC_147	SPEC_148	SPEC_150	SPEC_151	SPEC_153	SPEC_154	SPEC_155	SPEC_157	SPEC_158	SPEC_160	SPEC_161	SPEC_163	SPEC_164	SPEC_166	SPEC_167	SPEC_169	SPEC_170	SPEC_172	SPEC_173	SPEC_174	SPEC_176	SPEC_177	SPEC_179	SPEC_180	SPEC_182	SPEC_183	SPEC_185	SPEC_186	SPEC_188	SPEC_189	SPEC_190	SPEC_192	SPEC_193	SPEC_195	SPEC_196	SPEC_198	SPEC_199	SPEC_201	SPEC_202	SPEC_204	SPEC_205	SPEC_206	SPEC_208	SPEC_209	SPEC_211	SPEC_212	SPEC_214	SPEC_215	SPEC_217	SPEC_218	SPEC_220	SPEC_221	SPEC_223	SPEC_224	SPEC_225	SPEC_227	SPEC_228	SPEC_230	SPEC_231	SPEC_233	SPEC_234	SPEC_236	SPEC_237	SPEC_239	SPEC_240	SPEC_241	SPEC_243	SPEC_244	SPEC_246	SPEC_247	SPEC_249	SPEC_250	SPEC_252	SPEC_253	SPEC_255	SPEC_256	SPEC_257	SPEC_259	SPEC_260	SPEC_262	SPEC_263	SPEC_265	SPEC_266	SPEC_268	SPEC_269	SPEC_271	SPEC_272	SPEC_274	SPEC_275	SPEC_276	SPEC_278	SPEC_279	SPEC_281	SPEC_282	SPEC_284	SPEC_285	SPEC_287	SPEC_288	SPEC_290	SPEC_291	SPEC_292	SPEC_294	SPEC_295	SPEC_297	SPEC_298	SPEC_300	SPEC_301	SPEC_303	SPEC_304	SPEC_306	SPEC_307	SPEC_309	SPEC_310	SPEC_311	SPEC_313	SPEC_314	SPEC_316	SPEC_317	SPEC_319	SPEC_320	SPEC_322	SPEC_323	SPEC_325	SPEC_326	SPEC_327	SPEC_329	SPEC_330	SPEC_332	SPEC_333	SPEC_335	SPEC_336	SPEC_338	SPEC_339	SPEC_341	SPEC_342	SPEC_343	SPEC_345	SPEC_346	SPEC_348	SPEC_349	SPEC_351	SPEC_352	SPEC_354	SPEC_355	SPEC_357	SPEC_358	SPEC_360	SPEC_361	SPEC_362	SPEC_364	SPEC_365	SPEC_367	SPEC_368	SPEC_370	SPEC_371	SPEC_373	SPEC_374	SPEC_376	SPEC_377	SPEC_378	SPEC_380	SPEC_381	SPEC_383	SPEC_384	SPEC_386	SPEC_387	SPEC_389	SPEC_390	SPEC_392	SPEC_393	SPEC_394	SPEC_396	SPEC_397	SPEC_399	SPEC_400	SPEC_402	SPEC_403	SPEC_405	SPEC_406	SPEC_408	SPEC_409	SPEC_411	SPEC_412	SPEC_413	SPEC_415	SPEC_416	SPEC_418	SPEC_419	SPEC_421	SPEC_422	SPEC_424	SPEC_425	SPEC_427	SPEC_428	SPEC_429	SPEC_431	SPEC_432	SPEC_434	SPEC_435	SPEC_437	SPEC_438	SPEC_440	SPEC_441	SPEC_443	SPEC_444	SPEC_445	SPEC_447	SPEC_448	SPEC_450	SPEC_451	SPEC_453	SPEC_454	SPEC_456	SPEC_457	SPEC_459	SPEC_460	SPEC_462	SPEC_463	SPEC_464	SPEC_466	SPEC_467	SPEC_469	SPEC_470	SPEC_472	SPEC_473	SPEC_475	SPEC_476	SPEC_478	SPEC_479	SPEC_480	SPEC_482	SPEC_483	SPEC_485	SPEC_486	SPEC_488	SPEC_489	SPEC_491	SPEC_492	SPEC_494	SPEC_495	SPEC_497	SPEC_498	SPEC_499	SPEC_501	SPEC_502	SPEC_504	SPEC_505	SPEC_507	SPEC_508	SPEC_510	SPEC_511	SPEC_513	SPEC_514	SPEC_515	SPEC_517	SPEC_518	SPEC_520	SPEC_521	SPEC_523	SPEC_524	SPEC_526	SPEC_527	SPEC_529	SPEC_530	SPEC_531	SPEC_533	SPEC_534	SPEC_536	SPEC_537	SPEC_539	SPEC_540	SPEC_542	SPEC_543	SPEC_545	SPEC_546	SPEC_548	SPEC_549	SPEC_550	SPEC_552	SPEC_553	SPEC_555	SPEC_556	SPEC_558	SPEC_559	SPEC_561	SPEC_562	SPEC_564	SPEC_565	SPEC_566	SPEC_568	SPEC_569	SPEC_571	SPEC_572	SPEC_574	SPEC_575	SPEC_577	SPEC_578	SPEC_580	SPEC_581	SPEC_582	SPEC_584	SPEC_585	SPEC_587	SPEC_588	SPEC_590	SPEC_591	SPEC_593	SPEC_594	SPEC_596	SPEC_597	SPEC_599	SPEC_600	SPEC_601	SPEC_603	SPEC_604	SPEC_606	SPEC_607	SPEC_609	SPEC_610	SPEC_612	SPEC_613	SPEC_615	SPEC_616	SPEC_617	SPEC_619	SPEC_620	SPEC_622	SPEC_623	SPEC_625	SPEC_626	SPEC_628	SPEC_629	SPEC_631	SPEC_632	SPEC_633	SPEC_635	SPEC_636	SPEC_638	SPEC_639	SPEC_641	SPEC_642	SPEC_644	SPEC_645	SPEC_647	SPEC_648	SPEC_650	SPEC_651	SPEC_652	SPEC_654	SPEC_655	SPEC_657	SPEC_658	SPEC_660	SPEC_661	SPEC_663	SPEC_664	SPEC_666	SPEC_667	SPEC_668	SPEC_670	SPEC_671	SPEC_673	SPEC_674	SPEC_676	SPEC_677	SPEC_679	SPEC_680	SPEC_682	SPEC_683	SPEC_685	SPEC_686	SPEC_687	SPEC_689	SPEC_690	SPEC_692	SPEC_693	SPEC_695	SPEC_696	SPEC_698	SPEC_699	SPEC_701	SPEC_702	SPEC_703	SPEC_705	SPEC_706	SPEC_708	SPEC_709	SPEC_711	SPEC_712	SPEC_714	SPEC_715	SPEC_717	SPEC_718	SPEC_719	SPEC_721	SPEC_722	SPEC_724	SPEC_725	SPEC_727	SPEC_728	SPEC_730	SPEC_731	SPEC_733	SPEC_734	SPEC_736	SPEC_737	SPEC_738	SPEC_740	SPEC_741	SPEC_743	SPEC_744	SPEC_746	SPEC_747	SPEC_749	SPEC_750	SPEC_752	SPEC_753	SPEC_754	SPEC_756	SPEC_757	SPEC_759	SPEC_760	SPEC_762	SPEC_763	SPEC_765	SPEC_766	SPEC_768	SPEC_769	SPEC_770	SPEC_772	SPEC_773	SPEC_775	SPEC_776	SPEC_778	SPEC_779	SPEC_781	SPEC_782	SPEC_784	SPEC_785	SPEC_787	SPEC_788	SPEC_789	SPEC_791	SPEC_792	SPEC_794	SPEC_795	SPEC_797	SPEC_798	SPEC_800	SPEC_801	SPEC_803	SPEC_804	SPEC_805	SPEC_807	SPEC_808	SPEC_810	SPEC_811	SPEC_813	SPEC_814	SPEC_816	SPEC_817	SPEC_819	SPEC_820	SPEC_821	SPEC_823	SPEC_824	SPEC_826	SPEC_827	SPEC_829	SPEC_830	SPEC_832	SPEC_833	SPEC_835	SPEC_836	SPEC_838	SPEC_839	SPEC_840	SPEC_842	SPEC_843	SPEC_845	SPEC_846	SPEC_848	SPEC_849	SPEC_851	SPEC_852	SPEC_854	SPEC_855	SPEC_856	SPEC_858	SPEC_859	SPEC_861	SPEC_862	SPEC_864	SPEC_865	SPEC_867	SPEC_868	SPEC_870	SPEC_871	SPEC_873	SPEC_874	SPEC_875	SPEC_877	SPEC_878	SPEC_880	SPEC_881	SPEC_883	SPEC_884	SPEC_886	SPEC_887	SPEC_889	SPEC_890	SPEC_891	SPEC_893	SPEC_894	SPEC_896	SPEC_897	SPEC_899	SPEC_900	SPEC_902	SPEC_903	SPEC_905	SPEC_906	SPEC_907	SPEC_909	SPEC_910	SPEC_912	SPEC_913	SPEC_915	SPEC_916	SPEC_918	SPEC_919	SPEC_921	SPEC_922	SPEC_924	SPEC_925	SPEC_926	SPEC_928	SPEC_929	SPEC_931	SPEC_932	SPEC_934	SPEC_935	SPEC_937	SPEC_938	SPEC_940	SPEC_941	SPEC_942	SPEC_944	SPEC_945	SPEC_947	SPEC_948	SPEC_950	SPEC_951	SPEC_953	SPEC_954	SPEC_956	SPEC_957	SPEC_958	SPEC_960	SPEC_961	SPEC_963	SPEC_964	SPEC_966	SPEC_967	SPEC_969	SPEC_970	SPEC_972	SPEC_973	SPEC_975	SPEC_976	SPEC_977	SPEC_979	SPEC_980	SPEC_982	SPEC_983	SPEC_985	SPEC_986	SPEC_988	SPEC_989	SPEC_991	SPEC_992	SPEC_993	SPEC_995	SPEC_996	SPEC_998	SPEC_999	SPEC_1001	SPEC_1002	SPEC_1004	SPEC_1005	SPEC_1007	SPEC_1008	SPEC_1009	SPEC_1011	SPEC_1012	SPEC_1014	SPEC_1015	SPEC_1017	SPEC_1018	SPEC_1020	SPEC_1021	SPEC_1023	SPEC_1024	SPEC_1026	SPEC_1027	SPEC_1028	SPEC_1030	SPEC_1031	SPEC_1033	SPEC_1034	SPEC_1036	SPEC_1037	SPEC_1039	SPEC_1040	SPEC_1042	SPEC_1043	SPEC_1044	SPEC_1046	SPEC_1047	SPEC_1049	SPEC_1050	SPEC_1052	SPEC_1053	SPEC_1055	SPEC_1056	SPEC_1058	SPEC_1059	SPEC_1061	SPEC_1062	SPEC_1063	SPEC_1065	SPEC_1066	SPEC_1068	SPEC_1069	SPEC_1071	SPEC_1072	SPEC_1074	SPEC_1075	SPEC_1077	SPEC_1078	SPEC_1079	SPEC_1081	SPEC_1082	SPEC_1084	SPEC_1085	SPEC_1087	SPEC_1088	SPEC_1090	SPEC_1091	SPEC_1093	SPEC_1094	SPEC_1095	SPEC_1097	SPEC_1098	SPEC_1100	SPEC_1101	SPEC_1103	SPEC_1104	SPEC_1106	SPEC_1107	SPEC_1109	SPEC_1110	SPEC_1112	SPEC_1113	SPEC_1114	SPEC_1116	SPEC_1117	SPEC_1119	SPEC_1120	SPEC_1122	SPEC_1123	SPEC_1125	SPEC_1126	SPEC_1128	SPEC_1129	SPEC_1130	SPEC_1132	SPEC_1133	SPEC_1135	SPEC_1136	SPEC_1138	SPEC_1139	SPEC_1141	SPEC_1142	SPEC_1144	SPEC_1145	SPEC_1146	SPEC_1148	SPEC_1149	SPEC_1151	SPEC_1152	SPEC_1154	SPEC_1155	SPEC_1157	SPEC_1158	SPEC_1160	SPEC_1161	SPEC_1163	SPEC_1164	SPEC_1165	SPEC_1167	SPEC_1168	SPEC_1170	SPEC_1171	SPEC_1173	SPEC_1174	SPEC_1176	SPEC_1177	SPEC_1179	SPEC_1180	SPEC_1181	SPEC_1183	SPEC_1184	SPEC_1186	SPEC_1187	SPEC_1189	SPEC_1190	SPEC_1192	SPEC_1193	SPEC_1195	SPEC_1196	SPEC_1197	SPEC_1199	SPEC_1200	SPEC_1202	SPEC_1203	SPEC_1205	SPEC_1206	SPEC_1208	SPEC_1209	SPEC_1211	SPEC_1212	SPEC_1214	SPEC_1215	SPEC_1216	SPEC_1218	SPEC_1219	SPEC_1221	SPEC_1222	SPEC_1224	SPEC_1225	SPEC_1227	SPEC_1228	SPEC_1230	SPEC_1231	SPEC_1232	SPEC_1234	SPEC_1235	SPEC_1237	SPEC_1238	SPEC_1240	SPEC_1241	SPEC_1243	SPEC_1244	SPEC_1246	SPEC_1247	SPEC_1249	SPEC_1250	SPEC_1251	SPEC_1253	SPEC_1254	SPEC_1256	SPEC_1257	SPEC_1259	SPEC_1260	SPEC_1262	SPEC_1263	SPEC_1265	SPEC_1266	SPEC_1267	SPEC_1269	SPEC_1270	SPEC_1272	SPEC_1273	SPEC_1275	SPEC_1276	SPEC_1278	SPEC_1279	SPEC_1281	SPEC_1282	SPEC_1283	SPEC_1285	SPEC_1286	SPEC_1288	SPEC_1289	SPEC_1291	SPEC_1292	SPEC_1294	SPEC_1295	SPEC_1297	SPEC_1298	SPEC_1300	SPEC_1301	SPEC_1302	SPEC_1304	SPEC_1305	SPEC_1307	SPEC_1308	SPEC_1310	SPEC_1311	SPEC_1313	SPEC_1314	SPEC_1316	SPEC_1317	SPEC_1318	SPEC_1320	SPEC_1321	SPEC_1323	SPEC_1324	SPEC_1326	SPEC_1327	SPEC_1329	SPEC_1330	SPEC_1332	SPEC_1333	SPEC_1334	SPEC_1336	SPEC_1337	SPEC_1339	SPEC_1340	SPEC_1342	SPEC_1343	SPEC_1345	SPEC_1346	SPEC_1348	SPEC_1349	SPEC_1351	SPEC_1352	SPEC_1353	SPEC_1355	SPEC_1356	SPEC_1358	SPEC_1359	SPEC_1361	SPEC_1362	SPEC_1364	SPEC_1365	SPEC_1367	SPEC_1368	SPEC_1369	SPEC_1371	SPEC_1372	SPEC_1374	SPEC_1375	SPEC_1377	SPEC_1378	SPEC_1380	SPEC_1381	SPEC_1383	SPEC_1384	SPEC_1385	SPEC_1387	SPEC_1388	SPEC_1390	SPEC_1391	SPEC_1393	SPEC_1394	SPEC_1396	SPEC_1397	SPEC_1399	SPEC_1400	SPEC_1402	SPEC_1403	SPEC_1404	SPEC_1406	SPEC_1407	SPEC_1409	SPEC_1410	SPEC_1412	SPEC_1413	SPEC_1415	SPEC_1416	SPEC_1418	SPEC_1419	SPEC_1420	SPEC_1422	SPEC_1423	SPEC_1425	SPEC_1426	SPEC_1428	SPEC_1429	SPEC_1431	SPEC_1432	SPEC_1434	SPEC_1435	SPEC_1437	SPEC_1438	SPEC_1439	SPEC_1441	SPEC_1442	SPEC_1444	SPEC_1445	SPEC_1447	SPEC_1448	SPEC_1450	SPEC_1451	SPEC_1453	SPEC_1454	SPEC_1455	SPEC_1457	SPEC_1458	SPEC_1460	SPEC_1461	SPEC_1463	SPEC_1464	SPEC_1466	SPEC_1467	SPEC_1469	SPEC_1470	SPEC_1471	SPEC_1473	SPEC_1474	SPEC_1476	SPEC_1477	SPEC_1479	SPEC_1480	SPEC_1482	SPEC_1483	SPEC_1485	SPEC_1486	SPEC_1488	SPEC_1489	SPEC_1490	SPEC_1492	SPEC_1493	SPEC_1495	SPEC_1496	SPEC_1498	SPEC_1499	SPEC_1501	SPEC_1502	SPEC_1504	SPEC_1505	SPEC_1506	SPEC_1508	SPEC_1509	SPEC_1511	SPEC_1512	SPEC_1514	SPEC_1515	SPEC_1517	SPEC_1518	SPEC_1520	SPEC_1521	SPEC_1522	SPEC_1524	SPEC_1525	SPEC_1527	SPEC_1528	SPEC_1530	SPEC_1531	SPEC_1533	SPEC_1534	SPEC_1536	SPEC_1537	SPEC_1539	SPEC_1540	SPEC_1541	SPEC_1543	SPEC_1544	SPEC_1546	SPEC_1547	SPEC_1549	SPEC_1550	SPEC_1552	SPEC_1553	SPEC_1555	SPEC_1556	SPEC_1557	SPEC_1559	SPEC_1560	SPEC_1562	SPEC_1563	SPEC_1565	SPEC_1566	SPEC_1568	SPEC_1569	SPEC_1571	SPEC_1572	SPEC_1573	SPEC_1575	SPEC_1576	SPEC_1578	SPEC_1579	SPEC_1581	SPEC_1582	SPEC_1584	SPEC_1585	SPEC_1587	SPEC_1588	SPEC_1590	SPEC_1591	SPEC_1592	SPEC_1594	SPEC_1595	SPEC_1597	SPEC_1598	SPEC_1600	SPEC_1601	SPEC_1603	SPEC_1604	SPEC_1606	SPEC_1607	SPEC_1608	SPEC_1610	SPEC_1611	SPEC_1613	SPEC_1614	SPEC_1616	SPEC_1617	SPEC_1619	SPEC_1620	SPEC_1622	SPEC_1623	SPEC_1625	SPEC_1626	SPEC_1627	SPEC_1629	SPEC_1630	SPEC_1632	SPEC_1633	SPEC_1635	SPEC_1636	SPEC_1638	SPEC_1639	SPEC_1641	SPEC_1642	SPEC_1643	SPEC_1645	SPEC_1646	SPEC_1648	SPEC_1649	SPEC_1651	SPEC_1652	SPEC_1654	SPEC_1655	SPEC_1657	SPEC_1658	SPEC_1659	SPEC_1661	SPEC_1662	SPEC_1664	SPEC_1665	SPEC_1667	SPEC_1668	SPEC_1670	SPEC_1671	SPEC_1673	SPEC_1674	SPEC_1676	SPEC_1677	SPEC_1678	SPEC_1680	SPEC_1681	SPEC_1683	SPEC_1684	SPEC_1686	SPEC_1687	SPEC_1689	SPEC_1690	SPEC_1692	SPEC_1693	SPEC_1694	SPEC_1696	SPEC_1697	SPEC_1699	SPEC_1700	SPEC_1702	SPEC_1703	SPEC_1705	SPEC_1706	SPEC_1708	SPEC_1709	SPEC_1710	SPEC_1712	SPEC_1713	SPEC_1715	SPEC_1716	SPEC_1718	SPEC_1719	SPEC_1721	SPEC_1722	SPEC_1724	SPEC_1725	SPEC_1727	SPEC_1728	SPEC_1729	SPEC_1731	SPEC_1732	SPEC_1734	SPEC_1735	SPEC_1737	SPEC_1738	SPEC_1740	SPEC_1741	SPEC_1743	SPEC_1744	SPEC_1745	SPEC_1747	SPEC_1748	SPEC_1750	SPEC_1751	SPEC_1753	SPEC_1754	SPEC_1756	SPEC_1757	SPEC_1759	SPEC_1760	SPEC_1761	SPEC_1763	SPEC_1764	SPEC_1766	SPEC_1767	SPEC_1769	SPEC_1770	SPEC_1772	SPEC_1773	SPEC_1775	SPEC_1776	SPEC_1778	SPEC_1779	SPEC_1780	SPEC_1782	SPEC_1783	SPEC_1785	SPEC_1786	SPEC_1788	SPEC_1789	SPEC_1791	SPEC_1792	SPEC_1794	SPEC_1795	SPEC_1796	SPEC_1798	SPEC_1799	SPEC_1801	SPEC_1802	SPEC_1804	SPEC_1805	SPEC_1807	SPEC_1808	SPEC_1810	SPEC_1811	SPEC_1813	SPEC_1814	SPEC_1815	SPEC_1817	SPEC_1818	SPEC_1820	SPEC_1821	SPEC_1823	SPEC_1824	SPEC_1826	SPEC_1827	SPEC_1829	SPEC_1830	SPEC_1831	SPEC_1833	SPEC_1834	SPEC_1836	SPEC_1837	SPEC_1839	SPEC_1840	SPEC_1842	SPEC_1843	SPEC_1845	SPEC_1846	SPEC_1847	SPEC_1849	SPEC_1850	SPEC_1852	SPEC_1853	SPEC_1855	SPEC_1856	SPEC_1858	SPEC_1859	SPEC_1861	SPEC_1862	SPEC_1864	SPEC_1865	SPEC_1866	SPEC_1868	SPEC_1869	SPEC_1871	SPEC_1872	SPEC_1874	SPEC_1875	SPEC_1877	SPEC_1878	SPEC_1880	SPEC_1881	SPEC_1882	SPEC_1884	SPEC_1885	SPEC_1887	SPEC_1888	SPEC_1890	SPEC_1891	SPEC_1893	SPEC_1894	SPEC_1896	SPEC_1897	SPEC_1898	SPEC_1900	SPEC_1901	SPEC_1903	SPEC_1904	SPEC_1906	SPEC_1907	SPEC_1909	SPEC_1910	SPEC_1912	SPEC_1913	SPEC_1915	SPEC_1916	SPEC_1917	SPEC_1919	SPEC_1920	SPEC_1922	SPEC_1923	SPEC_1925	SPEC_1926	SPEC_1928	SPEC_1929	SPEC_1931	SPEC_1932	SPEC_1933	SPEC_1935	SPEC_1936	SPEC_1938	SPEC_1939	SPEC_1941	SPEC_1942	SPEC_1944	SPEC_1945	SPEC_1947	SPEC_1948	SPEC_1949	SPEC_1951	SPEC_1952	SPEC_1954	SPEC_1955	SPEC_1957	SPEC_1958	SPEC_1960	SPEC_1961	SPEC_1963	SPEC_1964	SPEC_1966	SPEC_1967	SPEC_1968	SPEC_1970	SPEC_1971	SPEC_1973	SPEC_1974	SPEC_1976	SPEC_1977	SPEC_1979	SPEC_1980	SPEC_1982	SPEC_1983	SPEC_1984	SPEC_1986	SPEC_1987	SPEC_1989
END_DATA_FORMAT
BEGIN_DATA
 X	2.0	2.0	2.0	1.0	2.0	1.0	1.0	1.0	2.0	1.0	1.0	2.0	2.0	1.0	1.0	2.0	2.0	2.0	2.0	1.0	2.0	2.0	0.0	2.0	2.0	2.0	2.0	1.0	1.0	2.0	2.0	2.0	2.0	1.0	1.0	1.0	2.0	2.0	6.0	93.0	93.0	293.0	322.0	392.0	415.0	390.0	444.0	444.0	414.0	477.0	523.0	559.0	579.0	595.0	606.0	553.0	619.0	619.0	566.0	627.0	628.0	571.0	629.0	631.0	633.0	631.0	634.0	634.0	572.0	637.0	636.0	577.0	635.0	635.0	637.0	638.0	638.0	637.0	635.0	636.0	636.0	576.0	640.0	638.0	578.0	639.0	638.0	579.0	637.0	637.0	637.0	632.0	639.0	638.0	578.0	638.0	638.0	580.0	638.0	638.0	639.0	635.0	638.0	639.0	576.0	638.0	638.0	578.0	639.0	637.0	579.0	636.0	639.0	639.0	623.0	640.0	638.0	577.0	386.0	79.0	21.0	13.0	11.0	9.0	10.0	9.0	8.0	9.0	9.0	8.0	2.0	2.0	2.0	2.0	2.0	2.0	2.0	1.0	2.0	2.0	3.0	2.0	2.0	2.0	1.0	1.0	2.0	1.0	2.0	2.0	2.0	2.0	2.0	1.0	2.0	2.0	2.0	2.0	1.0	2.0	1.0	1.0	2.0	2.0	2.0	2.0	1.0	2.0	2.0	2.0	2.0	1.0	2.0	2.0	1.0	1.0	1.0	2.0	2.0	2.0	3.0	2.0	1.0	2.0	2.0	1.0	1.0	1.0	2.0	1.0	2.0	1.0	2.0	1.0	1.0	2.0	2.0	2.0	2.0	2.0	2.0	2.0	3.0	2.0	2.0	2.0	1.0	2.0	2.0	1.0	1.0	0.0	2.0	1.0	1.0	2.0	1.0	2.0	2.0	2.0	2.0	1.0	2.0	1.0	2.0	2.0	1.0	1.0	2.0	2.0	2.0	2.0	2.0	2.0	2.0	3.0	2.0	1.0	1.0	1.0	2.0	2.0	2.0	2.0	2.0	2.0	2.0	2.0	2.0	3.0	1.0	3.0	2.0	2.0	2.0	2.0	2.0	1.0	2.0	2.0	2.0	2.0	1.0	2.0	1.0	4.0	2.0	2.0	1.0	2.0	2.0	2.0	2.0	2.0	1.0	2.0	1.0	1.0	2.0	2.0	1.0	1.0	1.0	2.0	0.0	2.0	1.0	1.0	2.0	2.0	1.0	3.0	2.0	2.0	2.0	1.0	2.0	2.0	0.0	1.0	2.0	1.0	2.0	2.0	2.0	2.0	2.0	2.0	1.0	2.0	2.0	2.0	2.0	7.0	65.0	189.0	290.0	312.0	396.0	414.0	382.0	442.0	450.0	405.0	469.0	519.0	555.0	574.0	594.0	605.0	542.0	620.0	620.0	555.0	627.0	627.0	580.0	629.0	632.0	632.0	593.0	635.0	634.0	562.0	635.0	635.0	565.0	636.0	637.0	637.0	635.0	638.0	638.0	565.0	639.0	638.0	567.0	640.0	637.0	604.0	639.0	639.0	638.0	636.0	639.0	639.0	566.0	638.0	638.0	567.0	639.0	638.0	592.0	638.0	638.0	640.0	607.0	640.0	638.0	567.0	640.0	639.0	568.0	639.0	637.0	639.0	637.0	637.0	637.0	565.0	640.0	638.0	568.0	469.0	104.0	25.0	13.0	11.0	10.0	8.0	9.0	9.0	7.0	10.0	9.0	3.0	2.0	2.0	2.0	2.0	1.0	1.0	2.0	3.0	1.0	1.0	1.0	1.0	2.0	1.0	2.0	1.0	1.0	2.0	2.0	2.0	2.0	2.0	2.0	1.0	2.0	2.0	2.0	1.0	2.0	2.0	0.0	2.0	1.0	1.0	2.0	1.0	2.0	2.0	2.0	2.0	2.0	2.0	1.0	2.0	2.0	2.0	1.0	1.0	2.0	2.0	2.0	2.0	1.0	2.0	1.0	2.0	2.0	1.0	1.0	2.0	1.0	1.0	1.0	1.0	2.0	1.0	2.0	1.0	1.0	1.0	1.0	2.0	2.0	1.0	1.0	2.0	2.0	1.0	2.0	2.0	2.0	2.0	2.0	2.0	1.0	2.0	2.0	1.0	2.0	1.0	2.0	2.0	1.0	3.0	2.0	1.0	2.0	2.0	2.0	2.0	2.0	2.0	1.0	1.0	2.0	2.0	1.0	2.0	2.0	1.0	2.0	1.0	2.0	1.0	1.0	2.0	2.0	1.0	2.0	2.0	2.0	2.0	1.0	2.0	2.0	2.0	1.0	1.0	2.0	4.0	2.0	2.0	1.0	2.0	2.0	3.0	2.0	2.0	2.0	2.0	2.0	1.0	2.0	2.0	2.0	1.0	1.0	2.0	1.0	2.0	1.0	2.0	2.0	1.0	2.0	2.0	2.0	2.0	1.0	3.0	3.0	2.0	2.0	2.0	2.0	2.0	2.0	2.0	2.0	2.0	5.0	42.0	140.0	271.0	342.0	384.0	398.0	431.0	442.0	399.0	457.0	464.0	451.0	549.0	575.0	591.0	602.0	612.0	612.0	605.0	626.0	627.0	557.0	632.0	631.0	562.0	634.0	634.0	634.0	634.0	636.0	636.0	564.0	637.0	636.0	566.0	638.0	638.0	578.0	637.0	638.0	638.0	640.0	640.0	637.0	636.0	639.0	640.0	566.0	640.0	638.0	569.0	638.0	638.0	579.0	639.0	641.0	640.0	598.0	641.0	640.0	568.0	640.0	639.0	570.0	639.0	640.0	640.0	637.0	640.0	640.0	568.0	640.0	639.0	568.0	640.0	640.0	594.0	637.0	640.0	640.0	582.0	642.0	640.0	568.0	641.0	639.0	570.0	639.0	639.0	640.0	612.0	227.0	47.0	15.0	12.0	10.0	9.0	10.0	10.0	10.0	10.0	10.0	5.0	3.0	1.0	2.0	2.0	2.0	1.0	2.0	2.0	2.0	1.0	2.0	2.0	1.0	1.0	1.0	2.0	1.0	1.0	2.0	3.0	2.0	3.0	1.0	1.0	1.0	2.0	1.0	2.0	1.0	2.0	1.0	1.0	1.0	2.0	2.0	2.0	2.0	2.0	2.0	2.0	2.0	1.0	1.0	1.0	1.0	1.0	2.0	2.0	2.0	2.0	1.0	3.0	2.0	1.0	1.0	2.0	1.0	2.0	3.0	3.0	1.0	2.0	1.0	2.0	2.0	2.0	2.0	1.0	1.0	2.0	1.0	2.0	1.0	2.0	2.0	2.0	2.0	2.0	2.0	1.0	1.0	1.0	2.0	2.0	3.0	2.0	1.0	2.0	3.0	2.0	2.0	2.0	2.0	2.0	2.0	1.0	1.0	2.0	2.0	2.0	1.0	2.0	2.0	2.0	1.0	1.0	1.0	2.0	2.0	1.0	2.0	2.0	1.0	1.0	2.0	2.0	1.0	2.0	2.0	2.0	1.0	2.0	1.0	2.0	2.0	2.0	1.0	0.0	2.0	2.0	2.0	2.0	2.0	2.0	2.0	2.0	1.0	1.0	1.0	1.0	1.0	2.0	2.0	2.0	1.0	2.0	2.0	3.0	2.0	2.0	1.0	2.0	2.0	1.0	2.0	1.0	1.0	2.0	1.0	1.0	1.0	1.0	2.0	1.0	2.0	2.0	2.0	2.0	2.0	2.0	2.0	3.0	0.0	2.0	1.0	2.0	2.0	2.0	2.0	2.0	1.0	1.0	3.0	6.0	63.0	188.0	290.0	303.0	392.0	415.0	368.0	443.0	451.0	390.0	468.0	518.0	555.0	578.0	594.0	606.0	521.0	619.0	622.0	534.0	627.0	629.0	631.0	630.0	633.0	635.0	540.0	636.0	636.0	543.0	638.0	637.0	545.0	636.0	637.0	637.0	617.0	640.0	639.0	544.0	640.0	640.0	546.0	639.0	639.0	639.0	638.0	641.0	641.0	544.0	641.0	639.0	547.0	641.0	640.0	565.0	639.0	639.0	640.0	610.0	642.0	641.0	546.0	642.0	642.0	559.0	559.0	640.0	546.0	641.0	641.0	641.0	639.0	641.0	640.0	546.0	642.0	640.0	547.0	465.0	105.0	24.0	15.0	11.0	9.0	9.0	9.0	10.0	9.0	9.0	9.0	3.0	3.0	1.0	2.0	3.0	2.0	2.0	2.0	2.0	2.0	2.0	2.0	2.0	1.0	2.0	1.0	2.0	2.0	3.0	2.0	2.0	2.0	1.0	1.0	2.0	2.0	2.0	2.0	1.0	2.0	2.0	2.0	2.0	1.0	2.0	1.0	2.0	2.0	1.0	2.0	2.0	2.0	1.0	1.0	1.0	1.0	2.0	2.0	2.0	1.0	1.0	2.0	1.0	2.0	1.0	2.0	2.0	2.0	2.0	1.0	2.0	1.0	2.0	2.0	1.0	2.0	2.0	1.0	2.0	2.0	1.0	2.0	2.0	1.0	2.0	2.0	2.0	1.0	2.0	1.0	1.0	2.0	2.0	1.0	1.0	1.0	2.0	2.0	2.0	2.0	1.0	1.0	2.0	2.0	1.0	2.0	2.0	1.0	2.0	1.0	2.0	2.0	1.0	1.0	2.0	1.0	1.0	1.0	2.0	2.0	2.0	1.0	2.0	1.0	1.0	2.0	2.0	1.0	1.0	2.0	2.0	1.0	2.0	2.0	2.0	2.0	2.0	2.0	2.0	2.0	4.0	2.0	1.0	1.0	1.0	1.0	1.0	2.0	1.0	2.0	2.0	2.0	2.0	2.0	1.0	2.0	2.0	2.0	2.0	2.0	2.0	2.0	2.0	1.0	2.0	3.0	2.0	2.0	1.0	1.0	2.0	1.0	2.0	2.0	1.0	1.0	2.0	2.0	2.0	2.0	2.0	2.0	14.0	102.0	196.0	315.0	368.0	341.0	421.0	435.0	381.0	452.0	457.0	487.0	519.0	565.0	584.0	510.0	608.0	614.0	528.0	622.0	625.0	626.0	627.0	630.0	632.0	538.0	634.0	634.0	542.0	635.0	635.0	554.0	634.0	636.0	637.0	606.0	638.0	638.0	544.0	639.0	638.0	545.0	638.0	638.0	639.0	636.0	639.0	639.0	545.0	640.0	639.0	545.0	640.0	638.0	571.0	638.0	640.0	640.0	599.0	640.0	640.0	613.0	613.0	640.0	546.0	640.0	639.0	598.0	638.0	638.0	641.0	560.0	640.0	640.0	546.0	641.0	640.0	548.0	639.0	640.0	640.0	638.0	641.0	640.0	544.0	641.0	640.0	548.0	640.0	641.0	622.0	596.0	200.0	41.0	14.0	14.0	10.0	10.0	10.0	9.0	8.0	10.0	10.0	2.0	3.0	1.0	2.0	2.0	3.0	2.0	2.0	3.0	2.0	1.0	1.0	2.0	2.0	2.0	2.0	2.0	1.0	2.0	2.0	1.0	2.0	2.0	1.0	3.0	2.0	1.0	2.0	2.0	1.0	1.0	2.0	2.0	1.0	1.0	2.0	1.0	2.0	3.0	1.0	2.0	2.0	2.0	2.0	2.0	2.0	2.0	1.0	2.0	2.0	1.0	2.0	1.0	2.0	2.0	3.0	2.0	1.0	1.0	0.0	0.0	2.0	2.0	2.0	1.0	2.0	2.0	1.0	1.0	2.0	2.0	3.0	2.0	2.0	2.0	4.0	2.0	2.0	2.0	2.0	2.0	2.0	1.0	1.0	1.0	2.0	3.0	2.0	1.0	2.0	2.0	0.0	3.0	3.0	2.0	2.0	1.0	2.0	1.0	2.0	2.0	1.0	2.0	2.0	1.0	1.0	2.0	2.0	2.0	2.0	2.0	2.0	1.0	1.0	1.0	2.0	3.0	3.0	1.0	2.0	3.0	2.0	3.0	1.0	1.0	2.0	2.0	2.0	2.0	2.0	1.0	3.0	3.0	1.0	2.0
