data/tests/eco1.ccss
CCSS   
DISPLAY	"Sample Data"
ORIGINATOR	"cd-refresh"
CREATED	"Sun Nov 16 19:27:37 2014"
DESCRIPTOR	"Colorimeter Calibration Spectral Set"
SPECTRAL_START_NM	0.0
SPECTRAL_END_NM	1.990
SPECTRAL_BANDS	1365
NUMBER_OF_FIELDS	1366
NUMBER_OF_SETS	3
BEGIN_DATA_FORMAT
 SAMPLE_ID	SPEC_1	SPEC_2	SPEC_4	SPEC_5	SPEC_7	SPEC_8	SPEC_10	SPEC_11	SPEC_13	SPEC_14	SPEC_16	SPEC_17	SPEC_19	SPEC_20	SPEC_21	SPEC_23	SPEC_24	SPEC_26	SPEC_27	SPEC_29	SPEC_30	SPEC_32	SPEC_33	SPEC_35	SPEC_36	SPEC_37	SPEC_39	SPEC_40	SPEC_42	SPEC_43	SPEC_45	SPEC_46	SPEC_48	SPEC_49	SPEC_51	SPEC_52	SPEC_54	SPEC_55	SPEC_56	SPEC_58	SPEC_59	SPEC_61	SPEC_62	SPEC_64	SPEC_65	SPEC_67	SPEC_68	SPEC_70	SPEC_71	SPEC_72	SPEC_74	SPEC_75	SPEC_77	SPEC_78	SPEC_80	SPEC_81	SPEC_83	SPEC_84	SPEC_86	SPEC_87	SPEC_89	SPEC_90	SPEC_91	SPEC_93	SPEC_94	SPEC_96	SPEC_97	SPEC_99	SPEC_100	SPEC_102	SPEC_103	SPEC_105	SPEC_106	SPEC_108	SPEC_109	SPEC_110	SPEC_112	SPEC_113	SPEC_115	SPEC_116	SPEC_118	SPEC_119	SPEC_121	SPEC_122	SPEC_124	SPEC_125	SPEC_126	SPEC_128	SPEC_129	SPEC_131	SPEC_132	SPEC_134	SPEC_135	SPEC_137	SPEC_138	SPEC_140	SPEC_141	SPEC_143	SPEC_144	SPEC_145	SPEC_147	SPEC_148	SPEC_150	SPEC_151	SPEC_153	SPEC_154	SPEC_156	SPEC_157	SPEC_159	SPEC_160	SPEC_161	SPEC_163	SPEC_164	SPEC_166	SPEC_167	SPEC_169	SPEC_170	SPEC_172	SPEC_173	SPEC_175	SPEC_176	SPEC_178	SPEC_179	SPEC_180	SPEC_182	SPEC_183	SPEC_185	SPEC_186	SPEC_188	SPEC_189	SPEC_191	SPEC_192	SPEC_194	SPEC_195	SPEC_196	SPEC_198	SPEC_199	SPEC_201	SPEC_202	SPEC_204	SPEC_205	SPEC_207	SPEC_208	SPEC_210	SPEC_211	SPEC_213	SPEC_214	SPEC_215	SPEC_217	SPEC_218	SPEC_220	SPEC_221	SPEC_223	SPEC_224	SPEC_226	SPEC_227	SPEC_229	SPEC_230	SPEC_232	SPEC_233	SPEC_234	SPEC_236	SPEC_237	SPEC_239	SPEC_240	SPEC_242	SPEC_243	SPEC_245	SPEC_246	SPEC_248	SPEC_249	SPEC_250	SPEC_252	SPEC_253	SPEC_255	SPEC_256	SPEC_258	SPEC_259	SPEC_261	SPEC_262	SPEC_264	SPEC_265	SPEC_267	SPEC_268	SPEC_269	SPEC_271	SPEC_272	SPEC_274	SPEC_275	SPEC_277	SPEC_278	SPEC_280	SPEC_281	SPEC_283	SPEC_284	SPEC_285	SPEC_287	SPEC_288	SPEC_290	SPEC_291	SPEC_293	SPEC_294	SPEC_296	SPEC_297	SPEC_299	SPEC_300	SPEC_302	SPEC_303	SPEC_304	SPEC_306	SPEC_307	SPEC_309	SPEC_310	SPEC_312	SPEC_313	SPEC_315	SPEC_316	SPEC_318	SPEC_319	SPEC_321	SPEC_322	SPEC_323	SPEC_325	SPEC_326	SPEC_328	SPEC_329	SPEC_331	SPEC_332	SPEC_334	SPEC_335	SPEC_337	SPEC_338	SPEC_339	SPEC_341	SPEC_342	SPEC_344	SPEC_345	SPEC_347	SPEC_348	SPEC_350	SPEC_351	SPEC_353	SPEC_354	SPEC_356	SPEC_357	SPEC_358	SPEC_360	SPEC_361	SPEC_363	SPEC_364	SPEC_366	SPEC_367	SPEC_369	SPEC_370	SPEC_372	SPEC_373	SPEC_374	SPEC_376	SPEC_377	SPEC_379	SPEC_380	SPEC_382	SPEC_383	SPEC_385	SPEC_386	SPEC_388	SPEC_389	SPEC_391	SPEC_392	SPEC_393	SPEC_395	SPEC_396	SPEC_398	SPEC_399	SPEC_401	SPEC_402	SPEC_404	SPEC_405	SPEC_407	SPEC_408	SPEC_410	SPEC_411	SPEC_412	SPEC_414	SPEC_415	SPEC_417	SPEC_418	SPEC_420	SPEC_421	SPEC_423	SPEC_424	SPEC_426	SPEC_427	SPEC_428	SPEC_430	SPEC_431	SPEC_433	SPEC_434	SPEC_436	SPEC_437	SPEC_439	SPEC_440	SPEC_442	SPEC_443	SPEC_445	SPEC_446	SPEC_447	SPEC_449	SPEC_450	SPEC_452	SPEC_453	SPEC_455	SPEC_456	SPEC_458	SPEC_459	SPEC_461	SPEC_462	SPEC_463	SPEC_465	SPEC_466	SPEC_468	SPEC_469	SPEC_471	SPEC_472	SPEC_474	SPEC_475	SPEC_477	SPEC_478	SPEC_480	SPEC_481	SPEC_482	SPEC_484	SPEC_485	SPEC_487	SPEC_488	SPEC_490	SPEC_491	SPEC_493	SPEC_494	SPEC_496	SPEC_497	SPEC_498	SPEC_500	SPEC_501	SPEC_503	SPEC_504	SPEC_506	SPEC_507	SPEC_509	SPEC_510	SPEC_512	SPEC_513	SPEC_515	SPEC_516	SPEC_517	SPEC_519	SPEC_520	SPEC_522	SPEC_523	SPEC_525	SPEC_526	SPEC_528	SPEC_529	SPEC_531	SPEC_532	SPEC_534	SPEC_535	SPEC_536	SPEC_538	SPEC_539	SPEC_541	SPEC_542	SPEC_544	SPEC_545	SPEC_547	SPEC_548	SPEC_550	SPEC_551	SPEC_552	SPEC_554	SPEC_555	SPEC_557	SPEC_558	SPEC_560	SPEC_561	SPEC_563	SPEC_564	SPEC_566	SPEC_567	SPEC_569	SPEC_570	SPEC_571	SPEC_573	SPEC_574	SPEC_576	SPEC_577	SPEC_579	SPEC_580	SPEC_582	SPEC_583	SPEC_585	SPEC_586	SPEC_587	SPEC_589	SPEC_590	SPEC_592	SPEC_593	SPEC_595	SPEC_596	SPEC_598	SPEC_599	SPEC_601	SPEC_602	SPEC_604	SPEC_605	SPEC_606	SPEC_608	SPEC_609	SPEC_611	SPEC_612	SPEC_614	SPEC_615	SPEC_617	SPEC_618	SPEC_620	SPEC_621	SPEC_623	SPEC_624	SPEC_625	SPEC_627	SPEC_628	SPEC_630	SPEC_631	SPEC_633	SPEC_634	SPEC_636	SPEC_637	SPEC_639	SPEC_640	SPEC_641	SPEC_643	SPEC_644	SPEC_646	SPEC_647	SPEC_649	SPEC_650	SPEC_652	SPEC_653	SPEC_655	SPEC_656	SPEC_658	SPEC_659	SPEC_660	SPEC_662	SPEC_663	SPEC_665	SPEC_666	SPEC_668	SPEC_669	SPEC_671	SPEC_672	SPEC_674	SPEC_675	SPEC_676	SPEC_678	SPEC_679	SPEC_681	SPEC_682	SPEC_684	SPEC_685	SPEC_687	SPEC_688	SPEC_690	SPEC_691	SPEC_693	SPEC_694	SPEC_695	SPEC_697	SPEC_698	SPEC_700	SPEC_701	SPEC_703	SPEC_704	SPEC_706	SPEC_707	SPEC_709	SPEC_710	SPEC_712	SPEC_713	SPEC_714	SPEC_716	SPEC_717	SPEC_719	SPEC_720	SPEC_722	SPEC_723	SPEC_725	SPEC_726	SPEC_728	SPEC_729	SPEC_730	SPEC_732	SPEC_733	SPEC_735	SPEC_736	SPEC_738	SPEC_739	SPEC_741	SPEC_742	SPEC_744	SPEC_745	SPEC_747	SPEC_748	SPEC_749	SPEC_751	SPEC_752	SPEC_754	SPEC_755	SPEC_757	SPEC_758	SPEC_760	SPEC_761	SPEC_763	SPEC_764	SPEC_765	SPEC_767	SPEC_768	SPEC_770	SPEC_771	SPEC_773	SPEC_774	SPEC_776	SPEC_777	SPEC_779	SPEC_780	SPEC_782	SPEC_783	SPEC_784	SPEC_786	SPEC_787	SPEC_789	SPEC_790	SPEC_792	SPEC_793	SPEC_795	SPEC_796	SPEC_798	SPEC_799	SPEC_800	SPEC_802	SPEC_803	SPEC_805	SPEC_806	SPEC_808	SPEC_809	SPEC_811	SPEC_812	SPEC_814	SPEC_815	SPEC_817	SPEC_818	SPEC_819	SPEC_821	SPEC_822	SPEC_824	SPEC_825	SPEC_827	SPEC_828	SPEC_830	SPEC_831	SPEC_833	SPEC_834	SPEC_836	SPEC_837	SPEC_838	SPEC_840	SPEC_841	SPEC_843	SPEC_844	SPEC_846	SPEC_847	SPEC_849	SPEC_850	SPEC_852	SPEC_853	SPEC_854	SPEC_856	SPEC_857	SPEC_859	SPEC_860	SPEC_862	SPEC_863	SPEC_865	SPEC_866	SPEC_868	SPEC_869	SPEC_871	SPEC_872	SPEC_873	SPEC_875	SPEC_876	SPEC_878	SPEC_879	SPEC_881	SPEC_882	SPEC_884	SPEC_885	SPEC_887	SPEC_888	SPEC_889	SPEC_891	SPEC_892	SPEC_894	SPEC_895	SPEC_897	SPEC_898	SPEC_900	SPEC_901	SPEC_903	SPEC_904	SPEC_906	SPEC_907	SPEC_908	SPEC_910	SPEC_911	SPEC_913	SPEC_914	SPEC_916	SPEC_917	SPEC_919	SPEC_920	SPEC_922	SPEC_923	SPEC_925	SPEC_926	SPEC_927	SPEC_929	SPEC_930	SPEC_932	SPEC_933	SPEC_935	SPEC_936	SPEC_938	SPEC_939	SPEC_941	SPEC_942	SPEC_943	SPEC_945	SPEC_946	SPEC_948	SPEC_949	SPEC_951	SPEC_952	SPEC_954	SPEC_955	SPEC_957	SPEC_958	SPEC_960	SPEC_961	SPEC_962	SPEC_964	SPEC_965	SPEC_967	SPEC_968	SPEC_970	SPEC_971	SPEC_973	SPEC_974	SPEC_976	SPEC_977	SPEC_978	SPEC_980	SPEC_981	SPEC_983	SPEC_984	SPEC_986	SPEC_987	SPEC_989	SPEC_990	SPEC_992	SPEC_993	SPEC_995	SPEC_996	SPEC_997	SPEC_999	SPEC_1000	SPEC_1002	SPEC_1003	SPEC_1005	SPEC_1006	SPEC_1008	SPEC_1009	SPEC_1011	SPEC_1012	SPEC_1014	SPEC_1015	SPEC_1016	SPEC_1018	SPEC_1019	SPEC_1021	SPEC_1022	SPEC_1024	SPEC_1025	SPEC_1027	SPEC_1028	SPEC_1030	SPEC_1031	SPEC_1032	SPEC_1034	SPEC_1035	SPEC_1037	SPEC_1038	SPEC_1040	SPEC_1041	SPEC_1043	SPEC_1044	SPEC_1046	SPEC_1047	SPEC_1049	SPEC_1050	SPEC_1051	SPEC_1053	SPEC_1054	SPEC_1056	SPEC_1057	SPEC_1059	SPEC_1060	SPEC_1062	SPEC_1063	SPEC_1065	SPEC_1066	SPEC_1067	SPEC_1069	SPEC_1070	SPEC_1072	SPEC_1073	SPEC_1075	SPEC_1076	SPEC_1078	SPEC_1079	SPEC_1081	SPEC_1082	SPEC_1084	SPEC_1085	SPEC_1086	SPEC_1088	SPEC_1089	SPEC_1091	SPEC_1092	SPEC_1094	SPEC_1095	SPEC_1097	SPEC_1098	SPEC_1100	SPEC_1101	SPEC_1102	SPEC_1104	SPEC_1105	SPEC_1107	SPEC_1108	SPEC_1110	SPEC_1111	SPEC_1113	SPEC_1114	SPEC_1116	SPEC_1117	SPEC_1119	SPEC_1120	SPEC_1121	SPEC_1123	SPEC_1124	SPEC_1126	SPEC_1127	SPEC_1129	SPEC_1130	SPEC_1132	SPEC_1133	SPEC_1135	SPEC_1136	SPEC_1138	SPEC_1139	SPEC_1140	SPEC_1142	SPEC_1143	SPEC_1145	SPEC_1146	SPEC_1148	SPEC_1149	SPEC_1151	SPEC_1152	SPEC_1154	SPEC_1155	SPEC_1156	SPEC_1158	SPEC_1159	SPEC_1161	SPEC_1162	SPEC_1164	SPEC_1165	SPEC_1167	SPEC_1168	SPEC_1170	SPEC_1171	SPEC_1173	SPEC_1174	SPEC_1175	SPEC_1177	SPEC_1178	SPEC_1180	SPEC_1181	SPEC_1183	SPEC_1184	SPEC_1186	SPEC_1187	SPEC_1189	SPEC_1190	SPEC_1191	SPEC_1193	SPEC_1194	SPEC_1196	SPEC_1197	SPEC_1199	SPEC_1200	SPEC_1202	SPEC_1203	SPEC_1205	SPEC_1206	SPEC_1208	SPEC_1209	SPEC_1210	SPEC_1212	SPEC_1213	SPEC_1215	SPEC_1216	SPEC_1218	SPEC_1219	SPEC_1221	SPEC_1222	SPEC_1224	SPEC_1225	SPEC_1227	SPEC_1228	SPEC_1229	SPEC_1231	SPEC_1232	SPEC_1234	SPEC_1235	SPEC_1237	SPEC_1238	SPEC_1240	SPEC_1241	SPEC_1243	SPEC_1244	SPEC_1245	SPEC_1247	SPEC_1248	SPEC_1250	SPEC_1251	SPEC_1253	SPEC_1254	SPEC_1256	SPEC_1257	SPEC_1259	SPEC_1260	SPEC_1262	SPEC_1263	SPEC_1264	SPEC_1266	SPEC_1267	SPEC_1269	SPEC_1270	SPEC_1272	SPEC_1273	SPEC_1275	SPEC_1276	SPEC_1278	SPEC_1279	SPEC_1280	SPEC_1282	SPEC_1283	SPEC_1285	SPEC_1286	SPEC_1288	SPEC_1289	SPEC_1291	SPEC_1292	SPEC_1294	SPEC_1295	SPEC_1297	SPEC_1298	SPEC_1299	SPEC_1301	SPEC_1302	SPEC_1304	SPEC_1305	SPEC_1307	SPEC_1308	SPEC_1310	SPEC_1311	SPEC_1313	SPEC_1314	SPEC_1316	SPEC_1317	SPEC_1318	SPEC_1320	SPEC_1321	SPEC_1323	SPEC_1324	SPEC_1326	SPEC_1327	SPEC_1329	SPEC_1330	SPEC_1332	SPEC_1333	SPEC_1334	SPEC_1336	SPEC_1337	SPEC_1339	SPEC_1340	SPEC_1342	SPEC_1343	SPEC_1345	SPEC_1346	SPEC_1348	SPEC_1349	SPEC_1351	SPEC_1352	SPEC_1353	SPEC_1355	SPEC_1356	SPEC_1358	SPEC_1359	SPEC_1361	SPEC_1362	SPEC_1364	SPEC_1365	SPEC_1367	SPEC_1368	SPEC_1369	SPEC_1371	SPEC_1372	SPEC_1374	SPEC_1375	SPEC_1377	SPEC_1378	SPEC_1380	SPEC_1381	SPEC_1383	SPEC_1384	SPEC_1386	SPEC_1387	SPEC_1388	SPEC_1390	SPEC_1391	SPEC_1393	SPEC_1394	SPEC_1396	SPEC_1397	SPEC_1399	SPEC_1400	SPEC_1402	SPEC_1403	SPEC_1404	SPEC_1406	SPEC_1407	SPEC_1409	SPEC_1410	SPEC_1412	SPEC_1413	SPEC_1415	SPEC_1416	SPEC_1418	SPEC_1419	SPEC_1421	SPEC_1422	SPEC_1423	SPEC_1425	SPEC_1426	SPEC_1428	SPEC_1429	SPEC_1431	SPEC_1432	SPEC_1434	SPEC_1435	SPEC_1437	SPEC_1438	SPEC_1440	SPEC_1441	SPEC_1442	SPEC_1444	SPEC_1445	SPEC_1447	SPEC_1448	SPEC_1450	SPEC_1451	SPEC_1453	SPEC_1454	SPEC_1456	SPEC_1457	SPEC_1458	SPEC_1460	SPEC_1461	SPEC_1463	SPEC_1464	SPEC_1466	SPEC_1467	SPEC_1469	SPEC_1470	SPEC_1472	SPEC_1473	SPEC_1475	SPEC_1476	SPEC_1477	SPEC_1479	SPEC_1480	SPEC_1482	SPEC_1483	SPEC_1485	SPEC_1486	SPEC_1488	SPEC_1489	SPEC_1491	SPEC_1492	SPEC_1493	SPEC_1495	SPEC_1496	SPEC_1498	SPEC_1499	SPEC_1501	SPEC_1502	SPEC_1504	SPEC_1505	SPEC_1507	SPEC_1508	SPEC_1510	SPEC_1511	SPEC_1512	SPEC_1514	SPEC_1515	SPEC_1517	SPEC_1518	SPEC_1520	SPEC_1521	SPEC_1523	SPEC_1524	SPEC_1526	SPEC_1527	SPEC_1529	SPEC_1530	SPEC_1531	SPEC_1533	SPEC_1534	SPEC_1536	SPEC_1537	SPEC_1539	SPEC_1540	SPEC_1542	SPEC_1543	SPEC_1545	SPEC_1546	SPEC_1547	SPEC_1549	SPEC_1550	SPEC_1552	SPEC_1553	SPEC_1555	SPEC_1556	SPEC_1558	SPEC_1559	SPEC_1561	SPEC_1562	SPEC_1564	SPEC_1565	SPEC_1566	SPEC_1568	SPEC_1569	SPEC_1571	SPEC_1572	SPEC_1574	SPEC_1575	SPEC_1577	SPEC_1578	SPEC_1580	SPEC_1581	SPEC_1582	SPEC_1584	SPEC_1585	SPEC_1587	SPEC_1588	SPEC_1590	SPEC_1591	SPEC_1593	SPEC_1594	SPEC_1596	SPEC_1597	SPEC_1599	SPEC_1600	SPEC_1601	SPEC_1603	SPEC_1604	SPEC_1606	SPEC_1607	SPEC_1609	SPEC_1610	SPEC_1612	SPEC_1613	SPEC_1615	SPEC_1616	SPEC_1618	SPEC_1619	SPEC_1620	SPEC_1622	SPEC_1623	SPEC_1625	SPEC_1626	SPEC_1628	SPEC_1629	SPEC_1631	SPEC_1632	SPEC_1634	SPEC_1635	SPEC_1636	SPEC_1638	SPEC_1639	SPEC_1641	SPEC_1642	SPEC_1644	SPEC_1645	SPEC_1647	SPEC_1648	SPEC_1650	SPEC_1651	SPEC_1653	SPEC_1654	SPEC_1655	SPEC_1657	SPEC_1658	SPEC_1660	SPEC_1661	SPEC_1663	SPEC_1664	SPEC_1666	SPEC_1667	SPEC_1669	SPEC_1670	SPEC_1671	SPEC_1673	SPEC_1674	SPEC_1676	SPEC_1677	SPEC_1679	SPEC_1680	SPEC_1682	SPEC_1683	SPEC_1685	SPEC_1686	SPEC_1688	SPEC_1689	SPEC_1690	SPEC_1692	SPEC_1693	SPEC_1695	SPEC_1696	SPEC_1698	SPEC_1699	SPEC_1701	SPEC_1702	SPEC_1704	SPEC_1705	SPEC_1706	SPEC_1708	SPEC_1709	SPEC_1711	SPEC_1712	SPEC_1714	SPEC_1715	SPEC_1717	SPEC_1718	SPEC_1720	SPEC_1721	SPEC_1723	SPEC_1724	SPEC_1725	SPEC_1727	SPEC_1728	SPEC_1730	SPEC_1731	SPEC_1733	SPEC_1734	SPEC_1736	SPEC_1737	SPEC_1739	SPEC_1740	SPEC_1742	SPEC_1743	SPEC_1744	SPEC_1746	SPEC_1747	SPEC_1749	SPEC_1750	SPEC_1752	SPEC_1753	SPEC_1755	SPEC_1756	SPEC_1758	SPEC_1759	SPEC_1760	SPEC_1762	SPEC_1763	SPEC_1765	SPEC_1766	SPEC_1768	SPEC_1769	SPEC_1771	SPEC_1772	SPEC_1774	SPEC_1775	SPEC_1777	SPEC_1778	SPEC_1779	SPEC_1781	SPEC_1782	SPEC_1784	SPEC_1785	SPEC_1787	SPEC_1788	SPEC_1790	SPEC_1791	SPEC_1793	SPEC_1794	SPEC_1795	SPEC_1797	SPEC_1798	SPEC_1800	SPEC_1801	SPEC_1803	SPEC_1804	SPEC_1806	SPEC_1807	SPEC_1809	SPEC_1810	SPEC_1812	SPEC_1813	SPEC_1814	SPEC_1816	SPEC_1817	SPEC_1819	SPEC_1820	SPEC_1822	SPEC_1823	SPEC_1825	SPEC_1826	SPEC_1828	SPEC_1829	SPEC_1831	SPEC_1832	SPEC_1833	SPEC_1835	SPEC_1836	SPEC_1838	SPEC_1839	SPEC_1841	SPEC_1842	SPEC_1844	SPEC_1845	SPEC_1847	SPEC_1848	SPEC_1849	SPEC_1851	SPEC_1852	SPEC_1854	SPEC_1855	SPEC_1857	SPEC_1858	SPEC_1860	SPEC_1861	SPEC_1863	SPEC_1864	SPEC_1866	SPEC_1867	SPEC_1868	SPEC_1870	SPEC_1871	SPEC_1873	SPEC_1874	SPEC_1876	SPEC_1877	SPEC_1879	SPEC_1880	SPEC_1882	SPEC_1883	SPEC_1884	SPEC_1886	SPEC_1887	SPEC_1889	SPEC_1890	SPEC_1892	SPEC_1893	SPEC_1895	SPEC_1896	SPEC_1898	SPEC_1899	SPEC_1901	SPEC_1902	SPEC_1903	SPEC_1905	SPEC_1906	SPEC_1908	SPEC_1909	SPEC_1911	SPEC_1912	SPEC_1914	SPEC_1915	SPEC_1917	SPEC_1918	SPEC_1920	SPEC_1921	SPEC_1922	SPEC_1924	SPEC_1925	SPEC_1927	SPEC_1928	SPEC_1930	SPEC_1931	SPEC_1933	SPEC_1934	SPEC_1936	SPEC_1937	SPEC_1938	SPEC_1940	SPEC_1941	SPEC_1943	SPEC_1944	SPEC_1946	SPEC_1947	SPEC_1949	SPEC_1950	SPEC_1952	SPEC_1953	SPEC_1955	SPEC_1956	SPEC_1957	SPEC_1959	SPEC_1960	SPEC_1962	SPEC_1963	SPEC_1965	SPEC_1966	SPEC_1968	SPEC_1969	SPEC_1971	SPEC_1972	SPEC_1973	SPEC_1975	SPEC_1976	SPEC_1978	SPEC_1979	SPEC_1981	SPEC_1982	SPEC_1984	SPEC_1985	SPEC_1987	SPEC_1988	SPEC_1990	SPEC_1991
END_DATA_FORMAT
BEGIN_DATA
 X	1.0	1.0	1.0	3.0	3.0	2.0	2.0	2.0	1.0	1.0	2.0	2.0	1.0	2.0	2.0	1.0	2.0	2.0	2.0	1.0	1.0	1.0	1.0	2.0	1.0	1.0	2.0	1.0	1.0	1.0	3.0	2.0	0.0	2.0	2.0	1.0	2.0	2.0	1.0	2.0	2.0	2.0	1.0	3.0	1.0	0.0	3.0	2.0	0.0	2.0	5.0	15.0	181.0	181.0	324.0	213.0	415.0	435.0	64.0	455.0	462.0	183.0	513.0	554.0	332.0	416.0	609.0	617.0	210.0	626.0	632.0	125.0	633.0	636.0	364.0	563.0	640.0	616.0	315.0	640.0	643.0	76.0	641.0	643.0	268.0	643.0	644.0	502.0	434.0	645.0	646.0	181.0	645.0	645.0	137.0	644.0	645.0	390.0	572.0	645.0	638.0	306.0	646.0	645.0	77.0	643.0	645.0	277.0	267.0	56.0	17.0	8.0	10.0	10.0	3.0	8.0	10.0	3.0	10.0	6.0	2.0	2.0	2.0	1.0	1.0	1.0	2.0	1.0	3.0	2.0	1.0	1.0	2.0	1.0	1.0	1.0	0.0	0.0	2.0	2.0	0.0	2.0	2.0	1.0	2.0	2.0	1.0	0.0	2.0	2.0	1.0	1.0	1.0	1.0	2.0	1.0	1.0	1.0	1.0	2.0	1.0	2.0	2.0	0.0	1.0	1.0	1.0	2.0	2.0	2.0	1.0	2.0	2.0	0.0	2.0	2.0	1.0	1.0	1.0	1.0	1.0	2.0	1.0	2.0	2.0	2.0	1.0	2.0	2.0	0.0	1.0	2.0	2.0	2.0	2.0	1.0	0.0	2.0	2.0	1.0	2.0	1.0	2.0	2.0	2.0	1.0	1.0	2.0	2.0	1.0	2.0	2.0	2.0	1.0	2.0	2.0	2.0	2.0	1.0	1.0	1.0	2.0	0.0	2.0	2.0	2.0	1.0	2.0	1.0	1.0	4.0	1.0	0.0	1.0	2.0	1.0	1.0	1.0	2.0	1.0	2.0	1.0	1.0	2.0	1.0	2.0	2.0	1.0	2.0	1.0	2.0	1.0	1.0	1.0	1.0	1.0	2.0	1.0	1.0	2.0	2.0	2.0	1.0	2.0	1.0	1.0	2.0	2.0	3.0	2.0	2.0	1.0	1.0	1.0	2.0	1.0	2.0	2.0	1.0	2.0	2.0	2.0	2.0	1.0	3.0	1.0	2.0	2.0	0.0	2.0	2.0	0.0	2.0	2.0	1.0	1.0	2.0	1.0	0.0	1.0	2.0	1.0	1.0	4.0	12.0	152.0	271.0	314.0	222.0	415.0	436.0	80.0	455.0	461.0	147.0	513.0	554.0	415.0	451.0	608.0	237.0	237.0	627.0	631.0	283.0	634.0	636.0	76.0	638.0	639.0	293.0	640.0	641.0	553.0	392.0	642.0	643.0	140.0	643.0	643.0	190.0	643.0	645.0	436.0	526.0	644.0	644.0	273.0	645.0	644.0	77.0	645.0	647.0	319.0	642.0	645.0	283.0	283.0	645.0	403.0	403.0	645.0	645.0	119.0	644.0	646.0	214.0	645.0	646.0	448.0	490.0	646.0	645.0	236.0	644.0	646.0	646.0	644.0	647.0	202.0	645.0	645.0	456.0	501.0	645.0	646.0	261.0	646.0	646.0	84.0	645.0	647.0	324.0	619.0	581.0	162.0	18.0	16.0	12.0	12.0	9.0	9.0	2.0	10.0	10.0	7.0	4.0	2.0	1.0	1.0	1.0	2.0	1.0	2.0	2.0	1.0	2.0	2.0	2.0	2.0	1.0	2.0	2.0	2.0	2.0	0.0	1.0	2.0	1.0	1.0	2.0	2.0	2.0	1.0	1.0	1.0	2.0	1.0	0.0	2.0	2.0	1.0	2.0	1.0	2.0	2.0	2.0	1.0	1.0	1.0	1.0	1.0	1.0	2.0	0.0	2.0	2.0	2.0	1.0	3.0	1.0	1.0	2.0	2.0	2.0	2.0	2.0	2.0	1.0	1.0	1.0	1.0	1.0	2.0	0.0	1.0	2.0	1.0	1.0	2.0	1.0	1.0	1.0	2.0	1.0	1.0	2.0	1.0	1.0	1.0	1.0	2.0	2.0	2.0	2.0	2.0	1.0	0.0	2.0	1.0	2.0	2.0	1.0	1.0	2.0	2.0	1.0	1.0	2.0	1.0	1.0	1.0	2.0	2.0	2.0	2.0	2.0	2.0	2.0	1.0	1.0	0.0	2.0	1.0	3.0	2.0	2.0	2.0	1.0	2.0	1.0	1.0	1.0	1.0	2.0	2.0	1.0	1.0	1.0	1.0	2.0	2.0	2.0	2.0	1.0	1.0	1.0	2.0	2.0	1.0	2.0	2.0	2.0	2.0	1.0	2.0	1.0	2.0	2.0	0.0	2.0	1.0	1.0	2.0	2.0	2.0	0.0	1.0	1.0	0.0	1.0	2.0	1.0	2.0	1.0	2.0	2.0	2.0	1.0	1.0	2.0	1.0	1.0	2.0	2.0	0.0	2.0	2.0	1.0	3.0	42.0	161.0	45.0	343.0	388.0	151.0	433.0	446.0	352.0	325.0	468.0	514.0	186.0	579.0	596.0	115.0	616.0	623.0	360.0	571.0	632.0	612.0	317.0	636.0	638.0	79.0	638.0	641.0	250.0	641.0	643.0	503.0	438.0	641.0	643.0	186.0	644.0	644.0	138.0	643.0	645.0	392.0	563.0	645.0	646.0	644.0	644.0	563.0	405.0	646.0	645.0	145.0	644.0	645.0	192.0	645.0	646.0	439.0	518.0	645.0	647.0	271.0	644.0	646.0	77.0	643.0	644.0	326.0	636.0	645.0	581.0	396.0	646.0	646.0	137.0	644.0	645.0	202.0	645.0	536.0	110.0	23.0	14.0	11.0	4.0	9.0	10.0	5.0	5.0	9.0	3.0	3.0	2.0	2.0	1.0	1.0	2.0	1.0	1.0	2.0	0.0	2.0	2.0	2.0	2.0	0.0	2.0	0.0	2.0	2.0	0.0	2.0	2.0	1.0	2.0	1.0	1.0	1.0	2.0	1.0	1.0	1.0	2.0	1.0	2.0	1.0	1.0	1.0	2.0	1.0	0.0	1.0	2.0	0.0	2.0	2.0	2.0	1.0	2.0	1.0	2.0	2.0	2.0	0.0	2.0	2.0	1.0	2.0	1.0	2.0	1.0	1.0	2.0	2.0	2.0	2.0	0.0	1.0	2.0	1.0	2.0	2.0	2.0	2.0	1.0	2.0	0.0	2.0	3.0	1.0	2.0	2.0	1.0	1.0	2.0	2.0	2.0	1.0	3.0	0.0	2.0	2.0	0.0	2.0	3.0	0.0	2.0	2.0	2.0	1.0	1.0	1.0	1.0	1.0	2.0	1.0	2.0	1.0	1.0	2.0	2.0	3.0	1.0	1.0	3.0	0.0	2.0	1.0	1.0	2.0	2.0	1.0	1.0	2.0	1.0	1.0	2.0	2.0	1.0	2.0	2.0	1.0	2.0	2.0	2.0	0.0	2.0	2.0	1.0	1.0	1.0	0.0	2.0	2.0	1.0	3.0	2.0	2.0	2.0	2.0	2.0	2.0	2.0	2.0	0.0	2.0	2.0	2.0	1.0	1.0	2.0	2.0	2.0	2.0	0.0	2.0	1.0	1.0	1.0	1.0	1.0	2.0	2.0	1.0	2.0	2.0	2.0	1.0	1.0	2.0	1.0	1.0	2.0	2.0	4.0	81.0	81.0	126.0	352.0	395.0	49.0	436.0	447.0	228.0	463.0	463.0	373.0	418.0	586.0	599.0	219.0	618.0	624.0	105.0	629.0	634.0	78.0	78.0	636.0	498.0	442.0	641.0	641.0	336.0	641.0	641.0	80.0	641.0	644.0	251.0	643.0	643.0	499.0	442.0	643.0	645.0	192.0	642.0	645.0	140.0	643.0	644.0	381.0	575.0	644.0	634.0	316.0	645.0	645.0	78.0	645.0	645.0	268.0	644.0	647.0	530.0	435.0	645.0	645.0	189.0	644.0	646.0	143.0	645.0	644.0	397.0	547.0	646.0	646.0	314.0	645.0	646.0	77.0	644.0	458.0	63.0	25.0	13.0	10.0	8.0	9.0	8.0	2.0	10.0	8.0	2.0	3.0	2.0	2.0	1.0	2.0	2.0	1.0	2.0	1.0	1.0	1.0	2.0	1.0	1.0	2.0	1.0	2.0	2.0	2.0	2.0	2.0	1.0	2.0	1.0	1.0	1.0	2.0	2.0	0.0	2.0	2.0	1.0	2.0	2.0	1.0	2.0	3.0	2.0	1.0	2.0	1.0	0.0	0.0	2.0	1.0	2.0	2.0	2.0	1.0	1.0	2.0	0.0	2.0	2.0	0.0	2.0	2.0	0.0	2.0	2.0	2.0	2.0	2.0	3.0	1.0	2.0	2.0	0.0	1.0	1.0	3.0	2.0	2.0	2.0	1.0	2.0	2.0	1.0	1.0	2.0	2.0	1.0	2.0	1.0	1.0	2.0	2.0	1.0	2.0	2.0	1.0	2.0	1.0	0.0	2.0	2.0	1.0	1.0	2.0	2.0	1.0	2.0	1.0	1.0	2.0	1.0	1.0	2.0	2.0	2.0	2.0	1.0	1.0	1.0	1.0	1.0	1.0	2.0	2.0	2.0	1.0	1.0	2.0	2.0	2.0	2.0	0.0	1.0	2.0	1.0	1.0	3.0	1.0	2.0	2.0	2.0	1.0	1.0	2.0	0.0	1.0	1.0	1.0	2.0	2.0	2.0	1.0	1.0	2.0	1.0	1.0	1.0	2.0	2.0	3.0	2.0	2.0	2.0	2.0	1.0	2.0	2.0	1.0	1.0	2.0	1.0	2.0	2.0	1.0	2.0	3.0	14.0	68.0	235.0	321.0	47.0	406.0	428.0	177.0	451.0	458.0	360.0	356.0	540.0	572.0	188.0	604.0	617.0	617.0	625.0	629.0	247.0	632.0	634.0	506.0	432.0	638.0	640.0	189.0	640.0	641.0	146.0	641.0	641.0	392.0	554.0	643.0	632.0	315.0	643.0	645.0	77.0	644.0	644.0	280.0	643.0	645.0	527.0	434.0	645.0	645.0	188.0	645.0	645.0	156.0	643.0	645.0	404.0	559.0	645.0	645.0	299.0	644.0	645.0	76.0	644.0	645.0	290.0	644.0	645.0	544.0	405.0	645.0	645.0	153.0	644.0	644.0	171.0	644.0	645.0	432.0	531.0	645.0	646.0	291.0	645.0	645.0	77.0	644.0	646.0	301.0	642.0	585.0	163.0	26.0	26.0	10.0	4.0	10.0	8.0	2.0	9.0	9.0	5.0	4.0	3.0	2.0	1.0	2.0	2.0	1.0	1.0	1.0	1.0	1.0	1.0	1.0	1.0	2.0	2.0	2.0	1.0	2.0	0.0	2.0	2.0	0.0	1.0	1.0	1.0	1.0	2.0	2.0	0.0	1.0	1.0	0.0	2.0	2.0	1.0	2.0	1.0	1.0	2.0	2.0	2.0	1.0	1.0	0.0	0.0	2.0	1.0	2.0	2.0	3.0	2.0	2.0	1.0	2.0	1.0	1.0	2.0	1.0	2.0	2.0	2.0	1.0	3.0	2.0	0.0	2.0	2.0	0.0	2.0	1.0	2.0	1.0	2.0	2.0	2.0	2.0	2.0	0.0	2.0	1.0	2.0	1.0	1.0	2.0	2.0	2.0	2.0	1.0	2.0	2.0	1.0	1.0	2.0	1.0	1.0	2.0	1.0	2.0	2.0	2.0	1.0	2.0	2.0	0.0	1.0	2.0	0.0	2.0	2.0	1.0	1.0	2.0	2.0	1.0	1.0	1.0	1.0	2.0	1.0	2.0	4.0	3.0	2.0	2.0	3.0	2.0	0.0	1.0	2.0	1.0	2.0	2.0	2.0	2.0
