data/tests/eco2.ccss
CCSS   
DISPLAY	"Sample Data"
ORIGINATOR	"cd-refresh"
CREATED	"Sun Nov 16 19:27:13 2014"
DESCRIPTOR	"Colorimeter Calibration Spectral Set"
SPECTRAL_START_NM	0.0
SPECTRAL_END_NM	1.986
SPECTRAL_BANDS	1365
NUMBER_OF_FIELDS	1366
NUMBER_OF_SETS	3
BEGIN_DATA_FORMAT
 SAMPLE_ID	SPEC_1	SPEC_2	SPEC_4	SPEC_5	SPEC_7	SPEC_8	SPEC_10	SPEC_11	SPEC_13	SPEC_14	SPEC_16	SPEC_17	SPEC_18	SPEC_20	SPEC_21	SPEC_23	SPEC_24	SPEC_26	SPEC_27	SPEC_29	SPEC_30	SPEC_32	SPEC_33	SPEC_34	SPEC_36	SPEC_37	SPEC_39	SPEC_40	SPEC_42	SPEC_43	SPEC_45	SPEC_46	SPEC_48	SPEC_49	SPEC_51	SPEC_52	SPEC_53	SPEC_55	SPEC_56	SPEC_58	SPEC_59	SPEC_61	SPEC_62	SPEC_64	SPEC_65	SPEC_67	SPEC_68	SPEC_69	SPEC_71	SPEC_72	SPEC_74	SPEC_75	SPEC_77	SPEC_78	SPEC_80	SPEC_81	SPEC_83	SPEC_84	SPEC_85	SPEC_87	SPEC_88	SPEC_90	SPEC_91	SPEC_93	SPEC_94	SPEC_96	SPEC_97	SPEC_99	SPEC_100	SPEC_101	SPEC_103	SPEC_104	SPEC_106	SPEC_107	SPEC_109	SPEC_110	SPEC_112	SPEC_113	SPEC_115	SPEC_116	SPEC_117	SPEC_119	SPEC_120	SPEC_122	SPEC_123	SPEC_125	SPEC_126	SPEC_128	SPEC_129	SPEC_131	SPEC_132	SPEC_133	SPEC_135	SPEC_136	SPEC_138	SPEC_139	SPEC_141	SPEC_142	SPEC_144	SPEC_145	SPEC_147	SPEC_148	SPEC_150	SPEC_151	SPEC_152	SPEC_154	SPEC_155	SPEC_157	SPEC_158	SPEC_160	SPEC_161	SPEC_163	SPEC_164	SPEC_166	SPEC_167	SPEC_168	SPEC_170	SPEC_171	SPEC_173	SPEC_174	SPEC_176	SPEC_177	SPEC_179	SPEC_180	SPEC_182	SPEC_183	SPEC_184	SPEC_186	SPEC_187	SPEC_189	SPEC_190	SPEC_192	SPEC_193	SPEC_195	SPEC_196	SPEC_198	SPEC_199	SPEC_200	SPEC_202	SPEC_203	SPEC_205	SPEC_206	SPEC_208	SPEC_209	SPEC_211	SPEC_212	SPEC_214	SPEC_215	SPEC_216	SPEC_218	SPEC_219	SPEC_221	SPEC_222	SPEC_224	SPEC_225	SPEC_227	SPEC_228	SPEC_230	SPEC_231	SPEC_232	SPEC_234	SPEC_235	SPEC_237	SPEC_238	SPEC_240	SPEC_241	SPEC_243	SPEC_244	SPEC_246	SPEC_247	SPEC_249	SPEC_250	SPEC_251	SPEC_253	SPEC_254	SPEC_256	SPEC_257	SPEC_259	SPEC_260	SPEC_262	SPEC_263	SPEC_265	SPEC_266	SPEC_267	SPEC_269	SPEC_270	SPEC_272	SPEC_273	SPEC_275	SPEC_276	SPEC_278	SPEC_279	SPEC_281	SPEC_282	SPEC_283	SPEC_285	SPEC_286	SPEC_288	SPEC_289	SPEC_291	SPEC_292	SPEC_294	SPEC_295	SPEC_297	SPEC_298	SPEC_299	SPEC_301	SPEC_302	SPEC_304	SPEC_305	SPEC_307	SPEC_308	SPEC_310	SPEC_311	SPEC_313	SPEC_314	SPEC_315	SPEC_317	SPEC_318	SPEC_320	SPEC_321	SPEC_323	SPEC_324	SPEC_326	SPEC_327	SPEC_329	SPEC_330	SPEC_331	SPEC_333	SPEC_334	SPEC_336	SPEC_337	SPEC_339	SPEC_340	SPEC_342	SPEC_343	SPEC_345	SPEC_346	SPEC_348	SPEC_349	SPEC_350	SPEC_352	SPEC_353	SPEC_355	SPEC_356	SPEC_358	SPEC_359	SPEC_361	SPEC_362	SPEC_364	SPEC_365	SPEC_366	SPEC_368	SPEC_369	SPEC_371	SPEC_372	SPEC_374	SPEC_375	SPEC_377	SPEC_378	SPEC_380	SPEC_381	SPEC_382	SPEC_384	SPEC_385	SPEC_387	SPEC_388	SPEC_390	SPEC_391	SPEC_393	SPEC_394	SPEC_396	SPEC_397	SPEC_398	SPEC_400	SPEC_401	SPEC_403	SPEC_404	SPEC_406	SPEC_407	SPEC_409	SPEC_410	SPEC_412	SPEC_413	SPEC_414	SPEC_416	SPEC_417	SPEC_419	SPEC_420	SPEC_422	SPEC_423	SPEC_425	SPEC_426	SPEC_428	SPEC_429	SPEC_430	SPEC_432	SPEC_433	SPEC_435	SPEC_436	SPEC_438	SPEC_439	SPEC_441	SPEC_442	SPEC_444	SPEC_445	SPEC_447	SPEC_448	SPEC_449	SPEC_451	SPEC_452	SPEC_454	SPEC_455	SPEC_457	SPEC_458	SPEC_460	SPEC_461	SPEC_463	SPEC_464	SPEC_465	SPEC_467	SPEC_468	SPEC_470	SPEC_471	SPEC_473	SPEC_474	SPEC_476	SPEC_477	SPEC_479	SPEC_480	SPEC_481	SPEC_483	SPEC_484	SPEC_486	SPEC_487	SPEC_489	SPEC_490	SPEC_492	SPEC_493	SPEC_495	SPEC_496	SPEC_497	SPEC_499	SPEC_500	SPEC_502	SPEC_503	SPEC_505	SPEC_506	SPEC_508	SPEC_509	SPEC_511	SPEC_512	SPEC_513	SPEC_515	SPEC_516	SPEC_518	SPEC_519	SPEC_521	SPEC_522	SPEC_524	SPEC_525	SPEC_527	SPEC_528	SPEC_529	SPEC_531	SPEC_532	SPEC_534	SPEC_535	SPEC_537	SPEC_538	SPEC_540	SPEC_541	SPEC_543	SPEC_544	SPEC_546	SPEC_547	SPEC_548	SPEC_550	SPEC_551	SPEC_553	SPEC_554	SPEC_556	SPEC_557	SPEC_559	SPEC_560	SPEC_562	SPEC_563	SPEC_564	SPEC_566	SPEC_567	SPEC_569	SPEC_570	SPEC_572	SPEC_573	SPEC_575	SPEC_576	SPEC_578	SPEC_579	SPEC_580	SPEC_582	SPEC_583	SPEC_585	SPEC_586	SPEC_588	SPEC_589	SPEC_591	SPEC_592	SPEC_594	SPEC_595	SPEC_596	SPEC_598	SPEC_599	SPEC_601	SPEC_602	SPEC_604	SPEC_605	SPEC_607	SPEC_608	SPEC_610	SPEC_611	SPEC_612	SPEC_614	SPEC_615	SPEC_617	SPEC_618	SPEC_620	SPEC_621	SPEC_623	SPEC_624	SPEC_626	SPEC_627	SPEC_628	SPEC_630	SPEC_631	SPEC_633	SPEC_634	SPEC_636	SPEC_637	SPEC_639	SPEC_640	SPEC_642	SPEC_643	SPEC_645	SPEC_646	SPEC_647	SPEC_649	SPEC_650	SPEC_652	SPEC_653	SPEC_655	SPEC_656	SPEC_658	SPEC_659	SPEC_661	SPEC_662	SPEC_663	SPEC_665	SPEC_666	SPEC_668	SPEC_669	SPEC_671	SPEC_672	SPEC_674	SPEC_675	SPEC_677	SPEC_678	SPEC_679	SPEC_681	SPEC_682	SPEC_684	SPEC_685	SPEC_687	SPEC_688	SPEC_690	SPEC_691	SPEC_693	SPEC_694	SPEC_695	SPEC_697	SPEC_698	SPEC_700	SPEC_701	SPEC_703	SPEC_704	SPEC_706	SPEC_707	SPEC_709	SPEC_710	SPEC_711	SPEC_713	SPEC_714	SPEC_716	SPEC_717	SPEC_719	SPEC_720	SPEC_722	SPEC_723	SPEC_725	SPEC_726	SPEC_727	SPEC_729	SPEC_730	SPEC_732	SPEC_733	SPEC_735	SPEC_736	SPEC_738	SPEC_739	SPEC_741	SPEC_742	SPEC_744	SPEC_745	SPEC_746	SPEC_748	SPEC_749	SPEC_751	SPEC_752	SPEC_754	SPEC_755	SPEC_757	SPEC_758	SPEC_760	SPEC_761	SPEC_762	SPEC_764	SPEC_765	SPEC_767	SPEC_768	SPEC_770	SPEC_771	SPEC_773	SPEC_774	SPEC_776	SPEC_777	SPEC_778	SPEC_780	SPEC_781	SPEC_783	SPEC_784	SPEC_786	SPEC_787	SPEC_789	SPEC_790	SPEC_792	SPEC_793	SPEC_794	SPEC_796	SPEC_797	SPEC_799	SPEC_800	SPEC_802	SPEC_803	SPEC_805	SPEC_806	SPEC_808	SPEC_809	SPEC_810	SPEC_812	SPEC_813	SPEC_815	SPEC_816	SPEC_818	SPEC_819	SPEC_821	SPEC_822	SPEC_824	SPEC_825	SPEC_826	SPEC_828	SPEC_829	SPEC_831	SPEC_832	SPEC_834	SPEC_835	SPEC_837	SPEC_838	SPEC_840	SPEC_841	SPEC_843	SPEC_844	SPEC_845	SPEC_847	SPEC_848	SPEC_850	SPEC_851	SPEC_853	SPEC_854	SPEC_856	SPEC_857	SPEC_859	SPEC_860	SPEC_861	SPEC_863	SPEC_864	SPEC_866	SPEC_867	SPEC_869	SPEC_870	SPEC_872	SPEC_873	SPEC_875	SPEC_876	SPEC_877	SPEC_879	SPEC_880	SPEC_882	SPEC_883	SPEC_885	SPEC_886	SPEC_888	SPEC_889	SPEC_891	SPEC_892	SPEC_893	SPEC_895	SPEC_896	SPEC_898	SPEC_899	SPEC_901	SPEC_902	SPEC_904	SPEC_905	SPEC_907	SPEC_908	SPEC_909	SPEC_911	SPEC_912	SPEC_914	SPEC_915	SPEC_917	SPEC_918	SPEC_920	SPEC_921	SPEC_923	SPEC_924	SPEC_925	SPEC_927	SPEC_928	SPEC_930	SPEC_931	SPEC_933	SPEC_934	SPEC_936	SPEC_937	SPEC_939	SPEC_940	SPEC_942	SPEC_943	SPEC_944	SPEC_946	SPEC_947	SPEC_949	SPEC_950	SPEC_952	SPEC_953	SPEC_955	SPEC_956	SPEC_958	SPEC_959	SPEC_960	SPEC_962	SPEC_963	SPEC_965	SPEC_966	SPEC_968	SPEC_969	SPEC_971	SPEC_972	SPEC_974	SPEC_975	SPEC_976	SPEC_978	SPEC_979	SPEC_981	SPEC_982	SPEC_984	SPEC_985	SPEC_987	SPEC_988	SPEC_990	SPEC_991	SPEC_992	SPEC_994	SPEC_995	SPEC_997	SPEC_998	SPEC_1000	SPEC_1001	SPEC_1003	SPEC_1004	SPEC_1006	SPEC_1007	SPEC_1008	SPEC_1010	SPEC_1011	SPEC_1013	SPEC_1014	SPEC_1016	SPEC_1017	SPEC_1019	SPEC_1020	SPEC_1022	SPEC_1023	SPEC_1024	SPEC_1026	SPEC_1027	SPEC_1029	SPEC_1030	SPEC_1032	SPEC_1033	SPEC_1035	SPEC_1036	SPEC_1038	SPEC_1039	SPEC_1041	SPEC_1042	SPEC_1043	SPEC_1045	SPEC_1046	SPEC_1048	SPEC_1049	SPEC_1051	SPEC_1052	SPEC_1054	SPEC_1055	SPEC_1057	SPEC_1058	SPEC_1059	SPEC_1061	SPEC_1062	SPEC_1064	SPEC_1065	SPEC_1067	SPEC_1068	SPEC_1070	SPEC_1071	SPEC_1073	SPEC_1074	SPEC_1075	SPEC_1077	SPEC_1078	SPEC_1080	SPEC_1081	SPEC_1083	SPEC_1084	SPEC_1086	SPEC_1087	SPEC_1089	SPEC_1090	SPEC_1091	SPEC_1093	SPEC_1094	SPEC_1096	SPEC_1097	SPEC_1099	SPEC_1100	SPEC_1102	SPEC_1103	SPEC_1105	SPEC_1106	SPEC_1107	SPEC_1109	SPEC_1110	SPEC_1112	SPEC_1113	SPEC_1115	SPEC_1116	SPEC_1118	SPEC_1119	SPEC_1121	SPEC_1122	SPEC_1123	SPEC_1125	SPEC_1126	SPEC_1128	SPEC_1129	SPEC_1131	SPEC_1132	SPEC_1134	SPEC_1135	SPEC_1137	SPEC_1138	SPEC_1140	SPEC_1141	SPEC_1142	SPEC_1144	SPEC_1145	SPEC_1147	SPEC_1148	SPEC_1150	SPEC_1151	SPEC_1153	SPEC_1154	SPEC_1156	SPEC_1157	SPEC_1158	SPEC_1160	SPEC_1161	SPEC_1163	SPEC_1164	SPEC_1166	SPEC_1167	SPEC_1169	SPEC_1170	SPEC_1172	SPEC_1173	SPEC_1174	SPEC_1176	SPEC_1177	SPEC_1179	SPEC_1180	SPEC_1182	SPEC_1183	SPEC_1185	SPEC_1186	SPEC_1188	SPEC_1189	SPEC_1190	SPEC_1192	SPEC_1193	SPEC_1195	SPEC_1196	SPEC_1198	SPEC_1199	SPEC_1201	SPEC_1202	SPEC_1204	SPEC_1205	SPEC_1206	SPEC_1208	SPEC_1209	SPEC_1211	SPEC_1212	SPEC_1214	SPEC_1215	SPEC_1217	SPEC_1218	SPEC_1220	SPEC_1221	SPEC_1222	SPEC_1224	SPEC_1225	SPEC_1227	SPEC_1228	SPEC_1230	SPEC_1231	SPEC_1233	SPEC_1234	SPEC_1236	SPEC_1237	SPEC_1239	SPEC_1240	SPEC_1241	SPEC_1243	SPEC_1244	SPEC_1246	SPEC_1247	SPEC_1249	SPEC_1250	SPEC_1252	SPEC_1253	SPEC_1255	SPEC_1256	SPEC_1257	SPEC_1259	SPEC_1260	SPEC_1262	SPEC_1263	SPEC_1265	SPEC_1266	SPEC_1268	SPEC_1269	SPEC_1271	SPEC_1272	SPEC_1273	SPEC_1275	SPEC_1276	SPEC_1278	SPEC_1279	SPEC_1281	SPEC_1282	SPEC_1284	SPEC_1285	SPEC_1287	SPEC_1288	SPEC_1289	SPEC_1291	SPEC_1292	SPEC_1294	SPEC_1295	SPEC_1297	SPEC_1298	SPEC_1300	SPEC_1301	SPEC_1303	SPEC_1304	SPEC_1305	SPEC_1307	SPEC_1308	SPEC_1310	SPEC_1311	SPEC_1313	SPEC_1314	SPEC_1316	SPEC_1317	SPEC_1319	SPEC_1320	SPEC_1321	SPEC_1323	SPEC_1324	SPEC_1326	SPEC_1327	SPEC_1329	SPEC_1330	SPEC_1332	SPEC_1333	SPEC_1335	SPEC_1336	SPEC_1338	SPEC_1339	SPEC_1340	SPEC_1342	SPEC_1343	SPEC_1345	SPEC_1346	SPEC_1348	SPEC_1349	SPEC_1351	SPEC_1352	SPEC_1354	SPEC_1355	SPEC_1356	SPEC_1358	SPEC_1359	SPEC_1361	SPEC_1362	SPEC_1364	SPEC_1365	SPEC_1367	SPEC_1368	SPEC_1370	SPEC_1371	SPEC_1372	SPEC_1374	SPEC_1375	SPEC_1377	SPEC_1378	SPEC_1380	SPEC_1381	SPEC_1383	SPEC_1384	SPEC_1386	SPEC_1387	SPEC_1388	SPEC_1390	SPEC_1391	SPEC_1393	SPEC_1394	SPEC_1396	SPEC_1397	SPEC_1399	SPEC_1400	SPEC_1402	SPEC_1403	SPEC_1404	SPEC_1406	SPEC_1407	SPEC_1409	SPEC_1410	SPEC_1412	SPEC_1413	SPEC_1415	SPEC_1416	SPEC_1418	SPEC_1419	SPEC_1420	SPEC_1422	SPEC_1423	SPEC_1425	SPEC_1426	SPEC_1428	SPEC_1429	SPEC_1431	SPEC_1432	SPEC_1434	SPEC_1435	SPEC_1437	SPEC_1438	SPEC_1439	SPEC_1441	SPEC_1442	SPEC_1444	SPEC_1445	SPEC_1447	SPEC_1448	SPEC_1450	SPEC_1451	SPEC_1453	SPEC_1454	SPEC_1455	SPEC_1457	SPEC_1458	SPEC_1460	SPEC_1461	SPEC_1463	SPEC_1464	SPEC_1466	SPEC_1467	SPEC_1469	SPEC_1470	SPEC_1471	SPEC_1473	SPEC_1474	SPEC_1476	SPEC_1477	SPEC_1479	SPEC_1480	SPEC_1482	SPEC_1483	SPEC_1485	SPEC_1486	SPEC_1487	SPEC_1489	SPEC_1490	SPEC_1492	SPEC_1493	SPEC_1495	SPEC_1496	SPEC_1498	SPEC_1499	SPEC_1501	SPEC_1502	SPEC_1503	SPEC_1505	SPEC_1506	SPEC_1508	SPEC_1509	SPEC_1511	SPEC_1512	SPEC_1514	SPEC_1515	SPEC_1517	SPEC_1518	SPEC_1519	SPEC_1521	SPEC_1522	SPEC_1524	SPEC_1525	SPEC_1527	SPEC_1528	SPEC_1530	SPEC_1531	SPEC_1533	SPEC_1534	SPEC_1536	SPEC_1537	SPEC_1538	SPEC_1540	SPEC_1541	SPEC_1543	SPEC_1544	SPEC_1546	SPEC_1547	SPEC_1549	SPEC_1550	SPEC_1552	SPEC_1553	SPEC_1554	SPEC_1556	SPEC_1557	SPEC_1559	SPEC_1560	SPEC_1562	SPEC_1563	SPEC_1565	SPEC_1566	SPEC_1568	SPEC_1569	SPEC_1570	SPEC_1572	SPEC_1573	SPEC_1575	SPEC_1576	SPEC_1578	SPEC_1579	SPEC_1581	SPEC_1582	SPEC_1584	SPEC_1585	SPEC_1586	SPEC_1588	SPEC_1589	SPEC_1591	SPEC_1592	SPEC_1594	SPEC_1595	SPEC_1597	SPEC_1598	SPEC_1600	SPEC_1601	SPEC_1602	SPEC_1604	SPEC_1605	SPEC_1607	SPEC_1608	SPEC_1610	SPEC_1611	SPEC_1613	SPEC_1614	SPEC_1616	SPEC_1617	SPEC_1618	SPEC_1620	SPEC_1621	SPEC_1623	SPEC_1624	SPEC_1626	SPEC_1627	SPEC_1629	SPEC_1630	SPEC_1632	SPEC_1633	SPEC_1635	SPEC_1636	SPEC_1637	SPEC_1639	SPEC_1640	SPEC_1642	SPEC_1643	SPEC_1645	SPEC_1646	SPEC_1648	SPEC_1649	SPEC_1651	SPEC_1652	SPEC_1653	SPEC_1655	SPEC_1656	SPEC_1658	SPEC_1659	SPEC_1661	SPEC_1662	SPEC_1664	SPEC_1665	SPEC_1667	SPEC_1668	SPEC_1669	SPEC_1671	SPEC_1672	SPEC_1674	SPEC_1675	SPEC_1677	SPEC_1678	SPEC_1680	SPEC_1681	SPEC_1683	SPEC_1684	SPEC_1685	SPEC_1687	SPEC_1688	SPEC_1690	SPEC_1691	SPEC_1693	SPEC_1694	SPEC_1696	SPEC_1697	SPEC_1699	SPEC_1700	SPEC_1701	SPEC_1703	SPEC_1704	SPEC_1706	SPEC_1707	SPEC_1709	SPEC_1710	SPEC_1712	SPEC_1713	SPEC_1715	SPEC_1716	SPEC_1717	SPEC_1719	SPEC_1720	SPEC_1722	SPEC_1723	SPEC_1725	SPEC_1726	SPEC_1728	SPEC_1729	SPEC_1731	SPEC_1732	SPEC_1734	SPEC_1735	SPEC_1736	SPEC_1738	SPEC_1739	SPEC_1741	SPEC_1742	SPEC_1744	SPEC_1745	SPEC_1747	SPEC_1748	SPEC_1750	SPEC_1751	SPEC_1752	SPEC_1754	SPEC_1755	SPEC_1757	SPEC_1758	SPEC_1760	SPEC_1761	SPEC_1763	SPEC_1764	SPEC_1766	SPEC_1767	SPEC_1768	SPEC_1770	SPEC_1771	SPEC_1773	SPEC_1774	SPEC_1776	SPEC_1777	SPEC_1779	SPEC_1780	SPEC_1782	SPEC_1783	SPEC_1784	SPEC_1786	SPEC_1787	SPEC_1789	SPEC_1790	SPEC_1792	SPEC_1793	SPEC_1795	SPEC_1796	SPEC_1798	SPEC_1799	SPEC_1800	SPEC_1802	SPEC_1803	SPEC_1805	SPEC_1806	SPEC_1808	SPEC_1809	SPEC_1811	SPEC_1812	SPEC_1814	SPEC_1815	SPEC_1816	SPEC_1818	SPEC_1819	SPEC_1821	SPEC_1822	SPEC_1824	SPEC_1825	SPEC_1827	SPEC_1828	SPEC_1830	SPEC_1831	SPEC_1833	SPEC_1834	SPEC_1835	SPEC_1837	SPEC_1838	SPEC_1840	SPEC_1841	SPEC_1843	SPEC_1844	SPEC_1846	SPEC_1847	SPEC_1849	SPEC_1850	SPEC_1851	SPEC_1853	SPEC_1854	SPEC_1856	SPEC_1857	SPEC_1859	SPEC_1860	SPEC_1862	SPEC_1863	SPEC_1865	SPEC_1866	SPEC_1867	SPEC_1869	SPEC_1870	SPEC_1872	SPEC_1873	SPEC_1875	SPEC_1876	SPEC_1878	SPEC_1879	SPEC_1881	SPEC_1882	SPEC_1883	SPEC_1885	SPEC_1886	SPEC_1888	SPEC_1889	SPEC_1891	SPEC_1892	SPEC_1894	SPEC_1895	SPEC_1897	SPEC_1898	SPEC_1899	SPEC_1901	SPEC_1902	SPEC_1904	SPEC_1905	SPEC_1907	SPEC_1908	SPEC_1910	SPEC_1911	SPEC_1913	SPEC_1914	SPEC_1915	SPEC_1917	SPEC_1918	SPEC_1920	SPEC_1921	SPEC_1923	SPEC_1924	SPEC_1926	SPEC_1927	SPEC_1929	SPEC_1930	SPEC_1932	SPEC_1933	SPEC_1934	SPEC_1936	SPEC_1937	SPEC_1939	SPEC_1940	SPEC_1942	SPEC_1943	SPEC_1945	SPEC_1946	SPEC_1948	SPEC_1949	SPEC_1950	SPEC_1952	SPEC_1953	SPEC_1955	SPEC_1956	SPEC_1958	SPEC_1959	SPEC_1961	SPEC_1962	SPEC_1964	SPEC_1965	SPEC_1966	SPEC_1968	SPEC_1969	SPEC_1971	SPEC_1972	SPEC_1974	SPEC_1975	SPEC_1977	SPEC_1978	SPEC_1980	SPEC_1981	SPEC_1982	SPEC_1984	SPEC_1985	SPEC_1987
END_DATA_FORMAT
BEGIN_DATA
 X	1.0	1.0	1.0	1.0	0.0	1.0	1.0	1.0	0.0	2.0	1.0	0.0	2.0	2.0	1.0	0.0	1.0	1.0	1.0	2.0	0.0	0.0	2.0	1.0	0.0	1.0	2.0	0.0	0.0	1.0	1.0	0.0	2.0	1.0	1.0	1.0	2.0	1.0	1.0	1.0	0.0	0.0	2.0	1.0	1.0	7.0	16.0	0.0	235.0	254.0	0.0	156.0	444.0	0.0	1.0	472.0	74.0	1.0	543.0	321.0	1.0	341.0	578.0	1.0	96.0	635.0	1.0	0.0	643.0	235.0	1.0	484.0	482.0	1.0	224.0	645.0	1.0	1.0	649.0	104.0	0.0	595.0	358.0	1.0	358.0	626.0	0.0	96.0	650.0	0.0	1.0	652.0	241.0	2.0	465.0	490.0	0.0	216.0	650.0	1.0	0.0	653.0	128.0	0.0	579.0	376.0	1.0	324.0	638.0	0.0	79.0	652.0	15.0	1.0	147.0	147.0	0.0	12.0	4.0	0.0	8.0	7.0	0.0	4.0	11.0	0.0	1.0	2.0	0.0	1.0	2.0	2.0	1.0	2.0	1.0	1.0	1.0	2.0	0.0	1.0	2.0	1.0	1.0	2.0	2.0	0.0	1.0	2.0	0.0	1.0	2.0	1.0	1.0	2.0	2.0	0.0	1.0	1.0	1.0	0.0	2.0	1.0	1.0	2.0	2.0	1.0	2.0	2.0	1.0	1.0	1.0	1.0	1.0	1.0	1.0	1.0	2.0	3.0	0.0	1.0	2.0	1.0	1.0	2.0	1.0	1.0	1.0	1.0	1.0	1.0	2.0	1.0	1.0	2.0	0.0	0.0	2.0	1.0	1.0	1.0	1.0	0.0	2.0	2.0	1.0	0.0	1.0	0.0	1.0	2.0	0.0	1.0	1.0	1.0	1.0	1.0	2.0	0.0	0.0	1.0	0.0	0.0	2.0	1.0	1.0	2.0	1.0	1.0	1.0	1.0	0.0	1.0	1.0	1.0	1.0	1.0	1.0	1.0	1.0	0.0	2.0	2.0	1.0	1.0	1.0	2.0	1.0	0.0	2.0	1.0	1.0	1.0	1.0	0.0	1.0	2.0	2.0	1.0	2.0	1.0	1.0	2.0	1.0	1.0	1.0	1.0	1.0	1.0	0.0	1.0	1.0	2.0	2.0	1.0	1.0	2.0	0.0	1.0	3.0	1.0	1.0	1.0	1.0	1.0	2.0	0.0	0.0	1.0	2.0	1.0	0.0	2.0	1.0	1.0	2.0	1.0	0.0	5.0	22.0	1.0	137.0	349.0	0.0	39.0	442.0	17.0	1.0	471.0	203.0	2.0	371.0	478.0	1.0	168.0	620.0	1.0	1.0	635.0	162.0	1.0	540.0	420.0	0.0	290.0	644.0	1.0	43.0	648.0	46.0	1.0	648.0	299.0	1.0	405.0	547.0	0.0	149.0	649.0	1.0	1.0	652.0	175.0	1.0	539.0	422.0	1.0	276.0	649.0	0.0	299.0	299.0	1.0	0.0	652.0	222.0	1.0	492.0	464.0	1.0	248.0	650.0	0.0	1.0	652.0	89.0	1.0	613.0	345.0	0.0	369.0	612.0	1.0	99.0	651.0	1.0	1.0	653.0	224.0	1.0	483.0	486.0	3.0	219.0	650.0	2.0	1.0	652.0	1.0	1.0	350.0	41.0	1.0	9.0	10.0	1.0	3.0	6.0	6.0	2.0	9.0	0.0	1.0	1.0	1.0	0.0	0.0	2.0	1.0	1.0	1.0	1.0	1.0	2.0	2.0	0.0	1.0	1.0	0.0	1.0	2.0	0.0	0.0	2.0	1.0	0.0	1.0	1.0	1.0	1.0	0.0	1.0	2.0	2.0	1.0	1.0	2.0	1.0	1.0	1.0	1.0	0.0	2.0	2.0	1.0	0.0	2.0	1.0	1.0	1.0	0.0	0.0	2.0	1.0	0.0	2.0	2.0	0.0	1.0	2.0	0.0	0.0	2.0	1.0	1.0	1.0	2.0	0.0	1.0	2.0	0.0	1.0	2.0	0.0	1.0	2.0	1.0	0.0	2.0	1.0	0.0	1.0	1.0	0.0	0.0	2.0	0.0	0.0	1.0	2.0	0.0	0.0	2.0	0.0	0.0	2.0	0.0	1.0	1.0	1.0	0.0	2.0	2.0	0.0	1.0	2.0	1.0	1.0	2.0	1.0	1.0	2.0	2.0	1.0	2.0	2.0	1.0	1.0	2.0	1.0	0.0	1.0	1.0	0.0	2.0	2.0	1.0	1.0	1.0	1.0	1.0	1.0	1.0	1.0	2.0	2.0	1.0	2.0	2.0	0.0	1.0	1.0	1.0	0.0	3.0	1.0	1.0	2.0	2.0	0.0	1.0	1.0	1.0	2.0	2.0	0.0	1.0	2.0	1.0	0.0	2.0	1.0	0.0	1.0	2.0	0.0	1.0	1.0	1.0	0.0	0.0	1.0	1.0	2.0	2.0	0.0	2.0	1.0	0.0	1.0	2.0	0.0	0.0	1.0	1.0	0.0	2.0	2.0	0.0	0.0	2.0	1.0	1.0	2.0	1.0	0.0	5.0	21.0	0.0	149.0	343.0	0.0	48.0	442.0	6.0	1.0	471.0	193.0	1.0	389.0	476.0	0.0	182.0	619.0	1.0	1.0	636.0	141.0	1.0	548.0	388.0	1.0	303.0	642.0	1.0	62.0	648.0	25.0	1.0	650.0	278.0	0.0	432.0	533.0	1.0	182.0	649.0	1.0	0.0	653.0	173.0	1.0	539.0	428.0	0.0	284.0	649.0	1.0	28.0	652.0	54.0	1.0	651.0	307.0	1.0	411.0	550.0	1.0	1.0	650.0	1.0	1.0	651.0	88.0	1.0	384.0	57.0	1.0	8.0	9.0	1.0	2.0	9.0	0.0	0.0	10.0	3.0	0.0	2.0	2.0	0.0	1.0	2.0	0.0	1.0	2.0	1.0	1.0	1.0	2.0	1.0	2.0	2.0	1.0	1.0	2.0	1.0	1.0	2.0	0.0	0.0	2.0	1.0	1.0	1.0	1.0	1.0	0.0	2.0	0.0	1.0	2.0	2.0	1.0	1.0	1.0	1.0	0.0	2.0	1.0	0.0	2.0	1.0	0.0	2.0	3.0	1.0	2.0	1.0	1.0	1.0	1.0	1.0	0.0	1.0	1.0	1.0	1.0	2.0	0.0	1.0	2.0	0.0	1.0	2.0	1.0	0.0	2.0	2.0	1.0	1.0	2.0	0.0	0.0	2.0	1.0	1.0	1.0	1.0	1.0	1.0	2.0	0.0	0.0	1.0	1.0	0.0	2.0	2.0	1.0	1.0	1.0	0.0	1.0	2.0	0.0	1.0	1.0	0.0	1.0	2.0	2.0	1.0	1.0	2.0	1.0	1.0	2.0	1.0	1.0	1.0	1.0	0.0	1.0	2.0	1.0	2.0	2.0	1.0	1.0	2.0	1.0	1.0	2.0	0.0	0.0	2.0	2.0	0.0	2.0	2.0	0.0	1.0	1.0	1.0	1.0	1.0	2.0	1.0	2.0	1.0	1.0	1.0	3.0	1.0	1.0	2.0	1.0	3.0	2.0	1.0	0.0	1.0	1.0	1.0	1.0	2.0	0.0	1.0	2.0	1.0	1.0	2.0	0.0	1.0	1.0	2.0	1.0	1.0	2.0	1.0	1.0	2.0	2.0	0.0	2.0	1.0	0.0	1.0	1.0	1.0	17.0	179.0	1.0	0.0	398.0	142.0	1.0	348.0	339.0	1.0	172.0	527.0	0.0	0.0	603.0	95.0	1.0	597.0	352.0	2.0	362.0	601.0	1.0	92.0	643.0	0.0	0.0	648.0	236.0	0.0	468.0	483.0	2.0	216.0	646.0	1.0	1.0	651.0	118.0	0.0	602.0	378.0	1.0	347.0	621.0	1.0	84.0	651.0	1.0	1.0	654.0	254.0	0.0	454.0	502.0	1.0	203.0	650.0	1.0	0.0	652.0	1.0	1.0	654.0	240.0	2.0	467.0	495.0	1.0	203.0	650.0	1.0	1.0	652.0	133.0	1.0	588.0	376.0	1.0	253.0	147.0	0.0	3.0	11.0	1.0	1.0	10.0	1.0	1.0	7.0	6.0	0.0	1.0	2.0	0.0	1.0	1.0	1.0	1.0	3.0	2.0	1.0	2.0	2.0	1.0	1.0	2.0	0.0	1.0	2.0	1.0	1.0	2.0	1.0	1.0	2.0	2.0	1.0	0.0	2.0	0.0	0.0	2.0	1.0	1.0	1.0	1.0	0.0	1.0	2.0	1.0	0.0	2.0	0.0	1.0	2.0	1.0	1.0	0.0	2.0	1.0	1.0	2.0	0.0	0.0	2.0	1.0	1.0	1.0	1.0	0.0	1.0	1.0	2.0	0.0	1.0	1.0	1.0	2.0	1.0	1.0	1.0	3.0	0.0	1.0	2.0	1.0	1.0	2.0	1.0	1.0	2.0	2.0	1.0	1.0	2.0	1.0	0.0	2.0	0.0	1.0	2.0	1.0	1.0	2.0	2.0	1.0	1.0	2.0	0.0	1.0	1.0	0.0	1.0	1.0	1.0	1.0	1.0	2.0	1.0	1.0	2.0	1.0	1.0	1.0	2.0	1.0	2.0	1.0	1.0	1.0	2.0	0.0	1.0	2.0	0.0	0.0	1.0	1.0	1.0	1.0	2.0	1.0	1.0	1.0	1.0	0.0	2.0	2.0	0.0	1.0	2.0	1.0	0.0	2.0	1.0	1.0	2.0	1.0	1.0	2.0	2.0	1.0	1.0	1.0	1.0	1.0	2.0	1.0	0.0	2.0	1.0	1.0	1.0	1.0	0.0	2.0	2.0	0.0	0.0	2.0	2.0	0.0	11.0	4.0	0.0	309.0	155.0	1.0	283.0	377.0	1.0	120.0	471.0	0.0	0.0	572.0	157.0	1.0	509.0	405.0	1.0	274.0	634.0	1.0	26.0	643.0	54.0	0.0	647.0	301.0	1.0	407.0	563.0	1.0	150.0	647.0	1.0	1.0	650.0	178.0	1.0	516.0	445.0	0.0	260.0	648.0	1.0	4.0	651.0	65.0	0.0	637.0	320.0	1.0	380.0	576.0	0.0	130.0	651.0	2.0	0.0	652.0	213.0	1.0	500.0	146.0	146.0	388.0	568.0	1.0	130.0	651.0	2.0	1.0	653.0	207.0	0.0	519.0	461.0	1.0	264.0	651.0	2.0	7.0	654.0	74.0	1.0	629.0	330.0	1.0	378.0	584.0	1.0	100.0	223.0	1.0	1.0	12.0	12.0	1.0	10.0	6.0	0.0	5.0	10.0	1.0	1.0	2.0	0.0	1.0	3.0	0.0	1.0	2.0	3.0	1.0	2.0	2.0	1.0	1.0	2.0	2.0	1.0	2.0	2.0	0.0	1.0	2.0	1.0	0.0	2.0	1.0	1.0	1.0	1.0	1.0	0.0	2.0	1.0	1.0	2.0	1.0	1.0	2.0	1.0	0.0	2.0	2.0	1.0	1.0	2.0	0.0	0.0	2.0	0.0	1.0	3.0	1.0	1.0	2.0	1.0	0.0	2.0	1.0	0.0	0.0	2.0	2.0	0.0	2.0	2.0	1.0	1.0	2.0	0.0	1.0	1.0	0.0	1.0	2.0	2.0	1.0	2.0	2.0	1.0	1.0	2.0	0.0	0.0	2.0	1.0	1.0	1.0	2.0	1.0	0.0	2.0	1.0	1.0	2.0	0.0	0.0	1.0	1.0	1.0	1.0	1.0	1.0	1.0	2.0	1.0	1.0	2.0	1.0	1.0	1.0	2.0	1.0	0.0	2.0	0.0	1.0	2.0	2.0	0.0	2.0	2.0	0.0	2.0	1.0	0.0	1.0	2.0	1.0	1.0	2.0	0.0	1.0	2.0	2.0	1.0	1.0	2.0	1.0
